;FLAVOR:Marlin
;TIME:2752
;Filament used: 3.61937m
;Layer height: 0.3
;MINX:118.07
;MINY:64.116
;MINZ:0.2
;MAXX:208.721
;MAXY:198.823
;MAXZ:25.1
;Generated with Cura_SteamEngine 4.7.1
M82 ;absolute extrusion mode
;Sliced at: Fri 18-12-2020 17:31:30
;Basic settings: Layer height: 0.3 Walls: 0.8 Fill: 20
G21 ;metric values
G90 ;absolute positioning
M82 ;set extruder to absolute mode
M107 ;start with the fan off
M117 Start heating ...
M104 S210
M117 Homing X/Y ...
G28 X0 Y0 ;move X/Y to min endstops
M117 Homing Z ...
G28 Z0 ;move Z to min endstops
G1 Z15.0 F100 ;move the platform down 15mm
M117 Heating ...
M109 S210
M117 Start cleaning ...
G92 E0 ;zero the extruded length
G1 F200 E10 ;extrude 10mm of feed stock
G92 E0 ;zero the extruded length again
M117 Intro line ...
G1 Z2.0 F3000 ; Move Z Axis up little to prevent scratching of Heat Bed
G1 X0.1 Y20 Z0.3 F5000.0 ; Move to start position
G1 X0.1 Y200.0 Z0.3 F1500.0 E15 ; Draw the first line
G1 X0.4 Y200.0 Z0.3 F5000.0 ; Move to side a little
G1 X0.4 Y20 Z0.3 F1500.0 E30 ; Draw the second line
G92 E0 ; Reset Extruder
G1 E-1 F500 ; Retract filiment by 1 mm
G1 Z2.0 F3000 ; Move Z Axis up little to prevent scratching of Heat Bed
G1 X5 Y20 Z0.3 F100 ; Move over to prevent blob squish
G1 F100
G92 E0 ; Reset Extruder
M117 Printing...

G92 E0
G92 E0
G1 F1800 E-7
;LAYER_COUNT:84
;LAYER:0
M107
G1 F300 Z0.4
G0 F2000 X118.455 Y65.825 Z0.4
;TYPE:SKIRT
G1 F300 Z0.2
G1 F1800 E0
G1 F1200 X118.727 Y65.399 E0.01681
G1 X119.063 Y65.021 E0.03363
G1 X119.454 Y64.701 E0.05044
G1 X119.891 Y64.446 E0.06726
G1 X120.363 Y64.263 E0.0841
G1 X120.857 Y64.157 E0.10091
G1 X121.598 Y64.12 E0.12558
G1 X188.984 Y64.118 E2.36685
G1 X189.012 Y64.116 E2.36778
G1 X190.039 Y64.12 E2.40194
G1 X204.743 Y64.119 E2.891
G1 X205.445 Y64.129 E2.91435
G1 X205.948 Y64.176 E2.93115
G1 X206.438 Y64.302 E2.94798
G1 X206.901 Y64.504 E2.96478
G1 X207.328 Y64.775 E2.9816
G1 X207.784 Y65.189 E3.00209
G1 X208.11 Y65.575 E3.01889
G1 X208.372 Y66.008 E3.03573
G1 X208.562 Y66.477 E3.05256
G1 X208.676 Y66.969 E3.06935
G1 X208.716 Y67.529 E3.08803
G1 X208.721 Y67.935 E3.10153
G1 X208.721 Y68.509 E3.12062
G1 X208.711 Y69.242 E3.145
G1 X208.664 Y69.745 E3.16181
G1 X208.538 Y70.235 E3.17863
G1 X208.337 Y70.699 E3.19545
G1 X208.039 Y71.18 E3.21427
G1 X206.541 Y73.539 E3.30722
G1 X205.154 Y75.868 E3.39738
G1 X203.799 Y78.293 E3.48977
G1 X202.547 Y80.694 E3.57983
G1 X201.347 Y83.162 E3.67111
G1 X200.217 Y85.662 E3.76236
G1 X199.166 Y88.177 E3.85302
G1 X198.184 Y90.722 E3.94374
G1 X197.271 Y93.309 E4.03499
G1 X196.436 Y95.905 E4.12569
G1 X195.66 Y98.571 E4.21804
G1 X194.972 Y101.216 E4.30894
G1 X194.362 Y103.866 E4.39939
G1 X193.826 Y106.536 E4.48996
G1 X193.359 Y109.259 E4.58185
G1 X192.976 Y111.949 E4.67222
G1 X192.66 Y114.731 E4.76535
G1 X192.434 Y117.395 E4.85427
G1 X192.278 Y120.148 E4.94598
G1 X192.19 Y124.239 E5.08208
G1 X192.183 Y161.21 E6.31174
G1 X192.173 Y161.91 E6.33503
G1 X192.141 Y162.7 E6.36132
G1 X192.015 Y164.992 E6.43767
G1 X191.965 Y165.723 E6.46204
G1 X191.848 Y166.583 E6.49091
G1 X191.429 Y169.129 E6.57673
G1 X191.326 Y169.694 E6.59583
G1 X191.205 Y170.204 E6.61326
G1 X190.428 Y173.001 E6.70982
G1 X190.26 Y173.562 E6.72929
G1 X190.088 Y174.053 E6.7466
G1 X190.016 Y174.237 E6.75317
G1 X189.057 Y176.638 E6.83916
G1 X188.792 Y177.276 E6.86214
G1 X188.427 Y178.015 E6.88955
G1 X187.262 Y180.207 E6.97212
G1 X186.93 Y180.813 E6.9951
G1 X186.453 Y181.561 E7.0246
G1 X185.092 Y183.566 E7.1052
G1 X184.684 Y184.148 E7.12884
G1 X184.205 Y184.749 E7.1544
G1 X182.543 Y186.705 E7.23978
G1 X182.107 Y187.204 E7.26181
G1 X181.837 Y187.484 E7.27475
G1 X181.446 Y187.863 E7.29286
G1 X179.734 Y189.481 E7.37121
G1 X179.2 Y189.973 E7.39536
G1 X178.913 Y190.214 E7.40783
G1 X178.463 Y190.564 E7.42679
G1 X176.633 Y191.954 E7.50322
G1 X175.996 Y192.423 E7.52953
G1 X175.314 Y192.861 E7.55649
G1 X173.204 Y194.129 E7.63837
G1 X172.588 Y194.489 E7.6621
G1 X171.853 Y194.855 E7.68941
G1 X169.614 Y195.889 E7.77143
G1 X168.937 Y196.19 E7.79607
G1 X168.613 Y196.318 E7.80766
G1 X168.07 Y196.507 E7.82678
G1 X165.802 Y197.269 E7.90636
G1 X165.162 Y197.474 E7.92871
G1 X164.781 Y197.578 E7.94185
G1 X164.247 Y197.703 E7.96009
G1 X161.938 Y198.209 E8.03871
G1 X161.24 Y198.353 E8.06242
G1 X160.885 Y198.409 E8.07437
G1 X160.333 Y198.475 E8.09286
G1 X157.965 Y198.732 E8.17208
G1 X157.236 Y198.8 E8.19643
G1 X156.427 Y198.823 E8.22335
G1 X153.953 Y198.823 E8.30564
G1 X153.256 Y198.813 E8.32882
G1 X152.875 Y198.79 E8.34152
G1 X152.299 Y198.734 E8.36077
G1 X149.957 Y198.478 E8.43912
G1 X149.242 Y198.389 E8.46309
G1 X148.435 Y198.235 E8.49041
G1 X145.976 Y197.696 E8.57414
G1 X145.31 Y197.535 E8.59693
G1 X144.65 Y197.336 E8.61986
G1 X142.197 Y196.509 E8.70596
G1 X141.517 Y196.268 E8.72995
G1 X141.204 Y196.142 E8.74118
G1 X140.663 Y195.899 E8.7609
G1 X138.539 Y194.914 E8.83877
G1 X137.895 Y194.605 E8.86253
G1 X137.176 Y194.201 E8.88996
G1 X135.042 Y192.917 E8.9728
G1 X134.467 Y192.561 E8.99529
G1 X133.772 Y192.064 E9.02371
G1 X131.806 Y190.57 E9.10583
G1 X131.24 Y190.127 E9.12974
G1 X130.988 Y189.911 E9.14078
G1 X130.558 Y189.513 E9.16027
G1 X128.877 Y187.92 E9.23729
G1 X128.316 Y187.372 E9.26338
G1 X127.78 Y186.777 E9.29001
G1 X126.159 Y184.869 E9.37328
G1 X125.729 Y184.349 E9.39573
G1 X125.496 Y184.039 E9.40863
G1 X125.182 Y183.587 E9.42693
G1 X123.871 Y181.653 E9.50464
G1 X123.451 Y181.015 E9.53005
G1 X123.06 Y180.324 E9.55645
G1 X121.867 Y178.079 E9.64101
G1 X121.565 Y177.486 E9.66315
G1 X121.244 Y176.744 E9.69003
G1 X120.314 Y174.412 E9.77354
G1 X120.075 Y173.787 E9.79579
G1 X119.825 Y172.979 E9.82392
G1 X119.159 Y170.58 E9.90673
G1 X118.984 Y169.908 E9.92983
G1 X118.83 Y169.112 E9.9568
G1 X118.472 Y166.931 E10.03031
G1 X118.325 Y165.985 E10.06215
G1 X118.295 Y165.717 E10.07112
G1 X118.245 Y164.994 E10.09522
G1 X118.12 Y162.691 E10.17193
G1 X118.085 Y161.811 E10.20123
G1 X118.077 Y161.179 E10.22225
G1 X118.07 Y68.006 E13.32119
G1 X118.08 Y67.282 E13.34528
G1 X118.128 Y66.778 E13.36212
G1 X118.254 Y66.289 E13.37891
G1 X118.455 Y65.825 E13.39573
G1 F1800 E6.39573
G1 F300 Z0.4
G0 F2000 X190 Y67.519 Z0.4
;TYPE:SUPPORT
G1 F300 Z0.2
G1 F1800 E13.39573
G1 F1200 X205.321 Y67.519 E13.90531
G1 X205.321 Y69.119 E13.95852
G1 X190 Y69.119 E14.4681
G1 X190 Y67.519 E14.52132
G1 F1800 E7.52132
G1 F300 Z0.4
G0 F2000 X192 Y67.679 Z0.4
G1 F300 Z0.2
G1 F1800 E14.52132
G1 F1200 X192 Y68.959 E14.56389
G1 F1800 E7.56389
G1 F300 Z0.4
G0 F2000 X200 Y68.959 Z0.4
G1 F300 Z0.2
G1 F1800 E14.56389
G1 F1200 X200 Y67.679 E14.60646
G1 F1800 E7.60646
G1 F300 Z0.4
;MESH:decor.stl(1)
G0 F2000 X135.673 Y161.819 Z0.4
;TYPE:WALL-INNER
G1 F300 Z0.2
G1 F1800 E14.60646
G1 F1200 X135.872 Y164.589 E14.69883
G1 X136.462 Y167.301 E14.79114
G1 X137.432 Y169.902 E14.88347
G1 X138.762 Y172.338 E14.97578
G1 X140.426 Y174.561 E15.06814
G1 X142.389 Y176.524 E15.16048
G1 X144.612 Y178.187 E15.25281
G1 X147.048 Y179.518 E15.34514
G1 X149.649 Y180.488 E15.43747
G1 X152.361 Y181.078 E15.52978
G1 X155.13 Y181.276 E15.62211
G1 X157.9 Y181.078 E15.71448
G1 X160.611 Y180.488 E15.80676
G1 X163.213 Y179.518 E15.89912
G1 X165.649 Y178.187 E15.99144
G1 X167.872 Y176.524 E16.08378
G1 X169.835 Y174.561 E16.17612
G1 X171.498 Y172.338 E16.26845
G1 X172.828 Y169.902 E16.36076
G1 X173.799 Y167.301 E16.4531
G1 X174.388 Y164.589 E16.54541
G1 X174.587 Y161.819 E16.63778
G1 X174.388 Y159.05 E16.73011
G1 X173.799 Y156.338 E16.82242
G1 X172.828 Y153.737 E16.91476
G1 X171.498 Y151.301 E17.00707
G1 X169.835 Y149.078 E17.09941
G1 X167.872 Y147.115 E17.19174
G1 X165.649 Y145.452 E17.28408
G1 X163.213 Y144.121 E17.3764
G1 X160.611 Y143.151 E17.46876
G1 X157.9 Y142.561 E17.56104
G1 X155.13 Y142.362 E17.65341
G1 X152.361 Y142.561 E17.74575
G1 X149.649 Y143.151 E17.83806
G1 X147.048 Y144.121 E17.93039
G1 X144.612 Y145.452 E18.02271
G1 X142.389 Y147.115 E18.11505
G1 X140.426 Y149.078 E18.20738
G1 X138.762 Y151.301 E18.29974
G1 X137.432 Y153.737 E18.39205
G1 X136.462 Y156.338 E18.48438
G1 X135.872 Y159.05 E18.57669
G1 X135.673 Y161.819 E18.66903
G0 F2000 X136.074 Y161.819
;TYPE:WALL-OUTER
G1 F1200 X136.269 Y164.532 E18.75949
G1 X136.847 Y167.188 E18.8499
G1 X137.797 Y169.735 E18.94032
G1 X139.099 Y172.121 E19.03072
G1 X140.729 Y174.298 E19.12118
G1 X142.652 Y176.221 E19.21163
G1 X144.829 Y177.85 E19.30206
G1 X147.215 Y179.153 E19.39248
G1 X149.762 Y180.103 E19.4829
G1 X152.418 Y180.681 E19.5733
G1 X155.13 Y180.875 E19.66374
G1 X157.843 Y180.681 E19.7542
G1 X160.498 Y180.103 E19.84457
G1 X163.046 Y179.153 E19.93502
G1 X165.432 Y177.85 E20.02544
G1 X167.609 Y176.221 E20.11588
G1 X169.532 Y174.298 E20.20633
G1 X171.161 Y172.121 E20.29676
G1 X172.463 Y169.735 E20.38717
G1 X173.414 Y167.188 E20.47759
G1 X173.991 Y164.532 E20.56799
G1 X174.186 Y161.819 E20.65846
G1 X173.991 Y159.107 E20.74889
G1 X173.414 Y156.451 E20.83929
G1 X172.463 Y153.904 E20.92972
G1 X171.161 Y151.518 E21.02013
G1 X169.532 Y149.341 E21.11056
G1 X167.609 Y147.418 E21.20101
G1 X165.432 Y145.789 E21.29145
G1 X163.046 Y144.486 E21.38187
G1 X160.498 Y143.536 E21.47231
G1 X157.843 Y142.958 E21.56269
G1 X155.13 Y142.763 E21.65315
G1 X152.418 Y142.958 E21.74359
G1 X149.762 Y143.536 E21.834
G1 X147.215 Y144.486 E21.92441
G1 X144.829 Y145.789 E22.01483
G1 X142.652 Y147.418 E22.10527
G1 X140.729 Y149.341 E22.19572
G1 X139.099 Y151.518 E22.28617
G1 X137.797 Y153.904 E22.37658
G1 X136.847 Y156.451 E22.46699
G1 X136.269 Y159.107 E22.5574
G1 X136.074 Y161.819 E22.64783
G0 F2000 X136.088 Y162.018
G0 X135.649 Y162.048
G1 F1800 E15.64783
G1 F300 Z0.4
G0 F2000 X135.49 Y162.06 Z0.4
G0 X135.67 Y76.719
;TYPE:WALL-INNER
G1 F300 Z0.2
G1 F1800 E22.64783
G1 F1200 X135.67 Y134.056 E24.55487
G1 X136.276 Y134.401 E24.57806
G1 X139.675 Y132.378 E24.70962
G1 X142.926 Y130.888 E24.82857
G1 X146.309 Y129.758 E24.9472
G1 X149.594 Y129.043 E25.05901
G1 X149.792 Y128.998 E25.06577
G1 X153.354 Y128.615 E25.18492
G1 X156.918 Y128.616 E25.30346
G1 X160.479 Y129 E25.42259
G1 X163.962 Y129.761 E25.54117
G1 X167.345 Y130.892 E25.65981
G1 X170.597 Y132.383 E25.77879
G1 X173.993 Y134.407 E25.91028
G1 X174.6 Y134.062 E25.93351
G1 X174.6 Y76.719 E27.84074
G1 X135.67 Y76.719 E29.13556
G0 F2000 X136.07 Y77.119
;TYPE:WALL-OUTER
G1 F1200 X136.07 Y133.676 E31.01665
G1 X136.07 Y133.823 E31.02154
G1 X136.272 Y133.938 E31.02927
G1 X136.398 Y133.863 E31.03415
G1 X139.489 Y132.023 E31.15379
G1 X142.772 Y130.518 E31.27391
G1 X146.207 Y129.371 E31.39436
G1 X149.508 Y128.652 E31.50673
G1 X149.732 Y128.602 E31.51436
G1 X153.33 Y128.215 E31.63472
G1 X156.943 Y128.216 E31.75489
G1 X160.542 Y128.604 E31.87529
G1 X164.065 Y129.374 E31.99523
G1 X167.499 Y130.522 E32.11566
G1 X170.783 Y132.028 E32.23582
G1 X173.872 Y133.869 E32.35543
G1 X173.998 Y133.944 E32.3603
G1 X174.2 Y133.829 E32.36803
G1 X174.2 Y133.682 E32.37292
G1 X174.2 Y77.119 E34.25422
G1 X136.07 Y77.119 E35.52243
G0 F2000 X136.07 Y77.319
G0 X135.63 Y77.319
G1 F1800 E28.52243
G1 F300 Z0.4
G0 F2000 X135.47 Y77.319 Z0.4
G0 X188.4 Y67.919
;TYPE:WALL-INNER
G1 F300 Z0.2
G1 F1800 E35.52243
G1 F1200 X188.4 Y68.118 E35.52904
G1 X188.383 Y161.835 E38.64608
G1 X188.185 Y165.44 E38.76617
G1 X187.601 Y168.986 E38.8857
G1 X186.694 Y172.25 E38.99837
G1 X186.636 Y172.452 E39.00536
G1 X185.3 Y175.802 E39.12532
G1 X183.609 Y178.985 E39.2452
G1 X181.593 Y181.954 E39.36456
G1 X179.259 Y184.702 E39.48448
G1 X176.648 Y187.171 E39.604
G1 X173.776 Y189.352 E39.72394
G1 X170.701 Y191.2 E39.84326
G1 X167.428 Y192.713 E39.96319
G1 X164.012 Y193.863 E40.08308
G1 X160.506 Y194.634 E40.20247
G1 X156.918 Y195.023 E40.32251
G1 X153.33 Y195.023 E40.44185
G1 X149.742 Y194.632 E40.56189
G1 X146.44 Y193.907 E40.67433
G1 X146.243 Y193.862 E40.68105
G1 X142.82 Y192.709 E40.80119
G1 X139.549 Y191.195 E40.92107
G1 X136.465 Y189.339 E41.04079
G1 X133.607 Y187.167 E41.16018
G1 X130.994 Y184.692 E41.27989
G1 X128.664 Y181.949 E41.39959
G1 X126.638 Y178.963 E41.51961
G1 X124.957 Y175.794 E41.63892
G1 X123.62 Y172.441 E41.75898
G1 X122.657 Y168.973 E41.87869
G1 X122.074 Y165.425 E41.99828
G1 X121.877 Y161.822 E42.11829
G1 X121.87 Y68.118 E45.2349
G1 X121.87 Y67.919 E45.24152
G1 X122.069 Y67.919 E45.2458
G1 X188.201 Y67.919 E47.44536
G1 X188.4 Y67.919 E47.44964
G0 F2000 X188.8 Y67.719
;TYPE:WALL-OUTER
G1 F1200 X188.783 Y161.835 E50.57996
G1 X188.582 Y165.49 E50.70171
G1 X187.994 Y169.066 E50.82224
G1 X187.079 Y172.36 E50.93595
G1 X187.016 Y172.581 E50.94359
G1 X185.665 Y175.967 E51.06484
G1 X183.951 Y179.194 E51.18637
G1 X181.913 Y182.196 E51.30706
G1 X179.548 Y184.979 E51.42853
G1 X176.907 Y187.477 E51.54944
G1 X174.003 Y189.682 E51.67071
G1 X170.889 Y191.554 E51.79156
G1 X167.576 Y193.085 E51.91295
G1 X164.116 Y194.25 E52.03437
G1 X160.571 Y195.03 E52.1551
G1 X156.943 Y195.423 E52.27647
G1 X153.305 Y195.423 E52.39747
G1 X149.677 Y195.028 E52.51886
G1 X146.354 Y194.297 E52.63202
G1 X146.133 Y194.247 E52.63956
G1 X142.672 Y193.081 E52.76103
G1 X139.36 Y191.548 E52.88241
G1 X136.247 Y189.675 E53.00325
G1 X133.348 Y187.472 E53.12435
G1 X130.7 Y184.964 E53.24566
G1 X128.344 Y182.191 E53.36668
G1 X126.299 Y179.176 E53.48785
G1 X124.59 Y175.955 E53.60913
G1 X123.243 Y172.576 E53.73012
G1 X122.264 Y169.053 E53.85173
G1 X121.677 Y165.475 E53.97233
G1 X121.477 Y161.822 E54.09401
G1 X121.47 Y67.719 E57.22389
G1 X121.47 Y67.519 E57.23054
G1 X121.67 Y67.519 E57.23485
G1 X188.6 Y67.519 E59.46095
G1 X188.8 Y67.519 E59.4676
G1 X188.8 Y67.719 E59.47191
G0 F2000 X188.8 Y67.919
G0 X188.36 Y67.959
G0 X188.01 Y68.309
;TYPE:SKIN
G1 F1200 X187.993 Y161.814 E62.58189
G1 X187.795 Y165.409 E62.70165
G1 X187.223 Y168.888 E62.81891
G1 X186.319 Y172.143 E62.93127
G1 X186.266 Y172.328 E62.93767
G1 X184.951 Y175.627 E63.05579
G1 X183.269 Y178.792 E63.175
G1 X181.283 Y181.718 E63.29262
G1 X178.978 Y184.432 E63.41105
G1 X176.395 Y186.875 E63.5293
G1 X173.558 Y189.027 E63.64774
G1 X170.521 Y190.853 E63.7656
G1 X167.287 Y192.348 E63.8841
G1 X163.904 Y193.487 E64.00283
G1 X160.443 Y194.249 E64.1207
G1 X156.894 Y194.633 E64.23942
G1 X153.355 Y194.633 E64.35713
G1 X149.804 Y194.246 E64.47594
G1 X146.526 Y193.527 E64.58756
G1 X146.356 Y193.488 E64.59336
G1 X142.961 Y192.344 E64.71251
G1 X139.727 Y190.847 E64.83104
G1 X136.683 Y189.014 E64.94923
G1 X133.865 Y186.875 E65.0669
G1 X131.269 Y184.415 E65.18585
G1 X128.979 Y181.718 E65.30352
G1 X126.975 Y178.764 E65.42225
G1 X125.306 Y175.619 E65.54067
G1 X123.993 Y172.323 E65.65867
G1 X123.035 Y168.874 E65.77773
G1 X122.464 Y165.396 E65.89496
G1 X122.267 Y161.801 E66.01471
G1 X122.26 Y68.309 E69.12426
G1 X188.01 Y68.309 E71.31112
G1 F1800 E64.31112
G1 F300 Z0.4
G0 F2000 X188.2 Y68.31 Z0.4
G0 X174.99 Y76.329
G1 F300 Z0.2
G1 F1800 E71.31112
G1 F1200 X135.28 Y76.329 E72.63188
G1 X135.28 Y134.282 E74.5594
G1 X136.28 Y134.852 E74.59769
G1 X139.853 Y132.726 E74.73597
G1 X143.072 Y131.25 E74.85375
G1 X146.412 Y130.135 E74.97087
G1 X149.678 Y129.423 E75.08205
G1 X149.851 Y129.384 E75.08795
G1 X153.377 Y129.005 E75.2059
G1 X156.895 Y129.006 E75.32291
G1 X160.417 Y129.385 E75.44073
G1 X163.86 Y130.138 E75.55795
G1 X167.199 Y131.254 E75.67504
G1 X170.419 Y132.731 E75.79287
G1 X173.989 Y134.858 E75.93108
G1 X174.99 Y134.289 E75.96938
G1 X174.99 Y76.329 E77.89714
G1 F1800 E70.89714
G1 F300 Z0.4
G0 F2000 X174.682 Y76.637 Z0.4
G0 X160.721 Y142.776
G1 F300 Z0.2
G1 F1800 E77.89714
G1 F1200 X157.956 Y142.174 E77.99126
G1 X155.13 Y141.971 E78.08549
G1 X152.305 Y142.174 E78.17969
G1 X149.539 Y142.776 E78.27384
G1 X146.886 Y143.766 E78.36803
G1 X144.401 Y145.123 E78.4622
G1 X142.133 Y146.819 E78.55639
G1 X140.13 Y148.822 E78.65061
G1 X138.433 Y151.09 E78.74482
G1 X137.077 Y153.575 E78.83898
G1 X136.087 Y156.228 E78.93316
G1 X135.485 Y158.994 E79.02731
G1 X135.282 Y161.819 E79.12151
G1 X135.485 Y164.645 E79.21575
G1 X136.087 Y167.411 E79.3099
G1 X137.077 Y170.064 E79.40408
G1 X138.433 Y172.549 E79.49824
G1 X140.13 Y174.817 E79.59245
G1 X142.133 Y176.82 E79.68666
G1 X144.401 Y178.516 E79.78086
G1 X146.886 Y179.873 E79.87503
G1 X149.539 Y180.863 E79.96921
G1 X152.305 Y181.465 E80.06336
G1 X155.13 Y181.667 E80.15756
G1 X157.956 Y181.465 E80.2518
G1 X160.721 Y180.863 E80.34591
G1 X163.375 Y179.873 E80.44013
