;FLAVOR:Marlin
;TIME:2370
;Filament used: 2.38071m
;Layer height: 0.3
;MINX:20.7
;MINY:5.7
;MINZ:0.2
;MAXX:199.3
;MAXY:214.3
;MAXZ:1
;Generated with Cura_SteamEngine 4.7.1
M82 ;absolute extrusion mode
;Sliced at: Fri 18-12-2020 16:28:04
;Basic settings: Layer height: 0.3 Walls: 0.8 Fill: 20
G21 ;metric values
G90 ;absolute positioning
M82 ;set extruder to absolute mode
M107 ;start with the fan off
M117 Start heating ...
M104 S210
M117 Homing X/Y ...
G28 X0 Y0 ;move X/Y to min endstops
M117 Homing Z ...
G28 Z0 ;move Z to min endstops
G1 Z15.0 F100 ;move the platform down 15mm
M117 Heating ...
M109 S210
M117 Start cleaning ...
G92 E0 ;zero the extruded length
G1 F200 E10 ;extrude 10mm of feed stock
G92 E0 ;zero the extruded length again
M117 Intro line ...
G1 Z2.0 F3000 ; Move Z Axis up little to prevent scratching of Heat Bed
G1 X0.1 Y20 Z0.3 F5000.0 ; Move to start position
G1 X0.1 Y200.0 Z0.3 F1500.0 E15 ; Draw the first line
G1 X0.4 Y200.0 Z0.3 F5000.0 ; Move to side a little
G1 X0.4 Y20 Z0.3 F1500.0 E30 ; Draw the second line
G92 E0 ; Reset Extruder
G1 E-1 F500 ; Retract filiment by 1 mm
G1 Z2.0 F3000 ; Move Z Axis up little to prevent scratching of Heat Bed
G1 X5 Y20 Z0.3 F100 ; Move over to prevent blob squish
G1 F100
G92 E0 ; Reset Extruder
M117 Printing...

G92 E0
G92 E0
G1 F1800 E-7
;LAYER_COUNT:3
;LAYER:0
M107
G1 F300 Z0.4
G0 F2000 X20.858 Y6.88 Z0.4
;TYPE:SKIRT
G1 F300 Z0.2
G1 F1800 E0
G1 F1200 X21.048 Y6.553 E0.01258
G1 X21.344 Y6.227 E0.02722
G1 X21.639 Y5.989 E0.03983
G1 X21.977 Y5.818 E0.05243
G1 X22.343 Y5.721 E0.06502
G1 X22.617 Y5.7 E0.07416
G1 X197.383 Y5.7 E5.8869
G1 X197.76 Y5.74 E5.89951
G1 X198.12 Y5.858 E5.91211
G1 X198.447 Y6.048 E5.92469
G1 X198.773 Y6.344 E5.93934
G1 X199.011 Y6.639 E5.95194
G1 X199.182 Y6.977 E5.96454
G1 X199.279 Y7.343 E5.97714
G1 X199.3 Y7.617 E5.98628
G1 X199.299 Y19.262 E6.37359
G1 X199.288 Y19.459 E6.38015
G1 X199.21 Y20.167 E6.40384
G1 X199.12 Y20.564 E6.41738
G1 X198.88 Y21.251 E6.44159
G1 X198.696 Y21.633 E6.45569
G1 X198.323 Y22.228 E6.47905
G1 X198.059 Y22.56 E6.49316
G1 X197.561 Y23.058 E6.51658
G1 X197.229 Y23.323 E6.53071
G1 X196.636 Y23.695 E6.55399
G1 X196.258 Y23.877 E6.56794
G1 X195.589 Y24.113 E6.59154
G1 X195.167 Y24.21 E6.60594
G1 X194.448 Y24.289 E6.63
G1 X194.251 Y24.3 E6.63656
G1 X126.447 Y24.3 E8.89173
G1 X125.77 Y24.376 E8.91439
G1 X125.222 Y24.568 E8.9337
G1 X124.743 Y24.869 E8.95252
G1 X124.336 Y25.276 E8.97166
G1 X124.034 Y25.756 E8.99053
G1 X123.844 Y26.302 E9.00975
G1 X123.767 Y26.98 E9.03245
G1 X123.767 Y212.383 E15.19898
G1 X123.727 Y212.76 E15.21159
G1 X123.609 Y213.12 E15.22419
G1 X123.419 Y213.447 E15.23677
G1 X123.123 Y213.773 E15.25141
G1 X122.828 Y214.011 E15.26402
G1 X122.49 Y214.182 E15.27662
G1 X122.124 Y214.279 E15.28921
G1 X121.85 Y214.3 E15.29835
G1 X95.542 Y214.3 E16.17336
G1 X95.165 Y214.26 E16.18597
G1 X94.805 Y214.142 E16.19857
G1 X94.478 Y213.952 E16.21115
G1 X94.152 Y213.656 E16.22579
G1 X93.914 Y213.361 E16.2384
G1 X93.743 Y213.023 E16.251
G1 X93.646 Y212.657 E16.26359
G1 X93.625 Y212.383 E16.27273
G1 X93.625 Y27.351 E22.42692
G1 X93.547 Y26.659 E22.45008
G1 X93.349 Y26.095 E22.46996
G1 X93.04 Y25.601 E22.48934
G1 X92.618 Y25.181 E22.50915
G1 X92.125 Y24.871 E22.52852
G1 X91.559 Y24.673 E22.54846
G1 X90.875 Y24.595 E22.57136
G1 X26.666 Y24.595 E24.70696
G1 X26.466 Y24.584 E24.71362
G1 X25.543 Y24.481 E24.74451
G1 X25.127 Y24.385 E24.75871
G1 X24.264 Y24.082 E24.78913
G1 X23.883 Y23.898 E24.8032
G1 X23.117 Y23.417 E24.83329
G1 X22.785 Y23.153 E24.84739
G1 X22.141 Y22.509 E24.87769
G1 X21.877 Y22.178 E24.89177
G1 X21.395 Y21.41 E24.92193
G1 X21.211 Y21.029 E24.936
G1 X20.909 Y20.168 E24.96635
G1 X20.814 Y19.752 E24.98054
G1 X20.711 Y18.831 E25.01136
G1 X20.7 Y18.631 E25.01802
G1 X20.7 Y7.617 E25.38435
G1 X20.74 Y7.24 E25.39696
G1 X20.858 Y6.88 E25.40956
G0 F2000 X21.257 Y6.973
G1 F1200 X21.627 Y6.51 E25.42927
G1 X21.89 Y6.304 E25.44038
G1 X22.194 Y6.165 E25.4515
G1 X22.617 Y6.1 E25.46574
G1 X197.383 Y6.1 E31.27848
G1 X197.715 Y6.14 E31.2896
G1 X198.027 Y6.257 E31.30068
G1 X198.49 Y6.627 E31.3204
G1 X198.696 Y6.89 E31.33151
G1 X198.835 Y7.194 E31.34262
G1 X198.9 Y7.617 E31.35686
G1 X198.899 Y19.262 E31.74417
G1 X198.891 Y19.415 E31.74927
G1 X198.813 Y20.123 E31.77296
G1 X198.743 Y20.432 E31.7835
G1 X198.503 Y21.119 E31.8077
G1 X198.357 Y21.421 E31.81886
G1 X197.984 Y22.016 E31.84221
G1 X197.776 Y22.277 E31.85332
G1 X197.278 Y22.775 E31.87674
G1 X197.016 Y22.984 E31.88789
G1 X196.423 Y23.356 E31.91117
G1 X196.125 Y23.5 E31.92218
G1 X195.456 Y23.736 E31.94577
G1 X195.123 Y23.813 E31.95714
G1 X194.404 Y23.892 E31.9812
G1 X194.251 Y23.9 E31.98629
G1 X126.419 Y23.9 E34.2424
G1 X125.681 Y23.983 E34.2671
G1 X125.054 Y24.203 E34.2892
G1 X124.488 Y24.558 E34.31142
G1 X124.025 Y25.021 E34.3332
G1 X123.669 Y25.588 E34.35546
G1 X123.451 Y26.213 E34.37748
G1 X123.367 Y26.952 E34.40222
G1 X123.367 Y212.383 E40.56968
G1 X123.327 Y212.715 E40.5808
G1 X123.21 Y213.027 E40.59188
G1 X122.84 Y213.49 E40.6116
G1 X122.577 Y213.696 E40.62271
G1 X122.273 Y213.835 E40.63382
G1 X121.85 Y213.9 E40.64806
G1 X95.542 Y213.9 E41.52307
G1 X95.21 Y213.86 E41.53419
G1 X94.898 Y213.743 E41.54527
G1 X94.435 Y213.373 E41.56498
G1 X94.229 Y213.11 E41.5761
G1 X94.09 Y212.806 E41.58721
G1 X94.025 Y212.383 E41.60145
G1 X94.025 Y27.323 E47.75657
G1 X93.94 Y26.57 E47.78177
G1 X93.712 Y25.92 E47.80468
G1 X93.355 Y25.35 E47.82705
G1 X92.872 Y24.868 E47.84975
G1 X92.296 Y24.507 E47.87236
G1 X91.652 Y24.281 E47.89506
G1 X90.893 Y24.195 E47.92046
G1 X26.666 Y24.195 E50.05666
G1 X26.511 Y24.186 E50.06183
G1 X25.588 Y24.083 E50.09272
G1 X25.259 Y24.008 E50.10394
G1 X24.396 Y23.705 E50.13436
G1 X24.095 Y23.56 E50.14547
G1 X23.329 Y23.079 E50.17556
G1 X23.068 Y22.87 E50.18668
G1 X22.424 Y22.226 E50.21697
G1 X22.216 Y21.965 E50.22807
G1 X21.734 Y21.197 E50.25823
G1 X21.589 Y20.896 E50.26934
G1 X21.287 Y20.035 E50.29969
G1 X21.212 Y19.708 E50.31085
G1 X21.109 Y18.787 E50.34167
G1 X21.1 Y18.631 E50.34687
G1 X21.1 Y7.617 E50.71319
G1 X21.14 Y7.285 E50.72432
G1 X21.257 Y6.973 E50.7354
G0 F2000 X21.54 Y7.338
G1 F1200 X21.656 Y7.081 E50.74478
G1 X21.91 Y6.793 E50.75755
G1 X22.136 Y6.624 E50.76693
G1 X22.4 Y6.524 E50.77632
G1 X22.617 Y6.5 E50.78359
G1 X197.383 Y6.5 E56.59633
G1 X197.662 Y6.54 E56.6057
G1 X197.919 Y6.656 E56.61508
G1 X198.207 Y6.91 E56.62785
G1 X198.376 Y7.136 E56.63724
G1 X198.476 Y7.4 E56.64663
G1 X198.5 Y7.617 E56.65389
G1 X198.499 Y19.262 E57.0412
G1 X198.493 Y19.372 E57.04487
G1 X198.415 Y20.08 E57.06856
G1 X198.365 Y20.3 E57.07606
G1 X198.125 Y20.987 E57.10026
G1 X198.018 Y21.208 E57.10843
G1 X197.645 Y21.803 E57.13179
G1 X197.493 Y21.994 E57.13991
G1 X196.995 Y22.492 E57.16333
G1 X196.803 Y22.645 E57.1715
G1 X196.21 Y23.017 E57.19478
G1 X195.992 Y23.123 E57.20284
G1 X195.323 Y23.359 E57.22644
G1 X195.079 Y23.415 E57.23476
G1 X194.36 Y23.494 E57.25882
G1 X194.251 Y23.5 E57.26245
G1 X126.401 Y23.5 E59.51915
G1 X125.591 Y23.591 E59.54626
G1 X124.875 Y23.842 E59.5715
G1 X124.237 Y24.243 E59.59656
G1 X123.71 Y24.77 E59.62135
G1 X123.308 Y25.409 E59.64646
G1 X123.058 Y26.124 E59.67165
G1 X122.967 Y26.934 E59.69876
G1 X122.967 Y212.383 E65.86682
G1 X122.927 Y212.662 E65.8762
G1 X122.811 Y212.919 E65.88557
G1 X122.557 Y213.207 E65.89835
G1 X122.331 Y213.376 E65.90773
G1 X122.067 Y213.476 E65.91712
G1 X121.85 Y213.5 E65.92438
G1 X95.542 Y213.5 E66.79939
G1 X95.263 Y213.46 E66.80876
G1 X95.006 Y213.344 E66.81814
G1 X94.718 Y213.09 E66.83091
G1 X94.549 Y212.864 E66.8403
G1 X94.449 Y212.6 E66.84969
G1 X94.425 Y212.383 E66.85695
G1 X94.425 Y27.305 E73.01267
G1 X94.332 Y26.481 E73.04025
G1 X94.074 Y25.744 E73.06622
G1 X93.669 Y25.098 E73.09158
G1 X93.124 Y24.554 E73.11719
G1 X92.472 Y24.145 E73.14279
G1 X91.742 Y23.889 E73.16852
G1 X90.912 Y23.795 E73.19631
G1 X26.666 Y23.795 E75.33314
G1 X26.555 Y23.789 E75.33683
G1 X25.632 Y23.686 E75.36772
G1 X25.392 Y23.631 E75.37591
G1 X24.529 Y23.328 E75.40633
G1 X24.308 Y23.221 E75.4145
G1 X23.542 Y22.74 E75.44458
G1 X23.351 Y22.587 E75.45272
G1 X22.707 Y21.943 E75.48302
G1 X22.555 Y21.753 E75.49111
G1 X22.073 Y20.985 E75.52127
G1 X21.966 Y20.764 E75.52943
G1 X21.664 Y19.903 E75.55978
G1 X21.609 Y19.663 E75.56797
G1 X21.506 Y18.742 E75.59879
G1 X21.5 Y18.631 E75.60249
G1 X21.5 Y7.617 E75.96882
G1 X21.54 Y7.338 E75.97819
G0 F2000 X21.94 Y7.402
G1 F1200 X22.193 Y7.076 E75.99192
G1 X22.372 Y6.952 E75.99916
G1 X22.617 Y6.9 E76.00749
G1 X197.383 Y6.9 E81.82023
G1 X197.598 Y6.94 E81.8275
G1 X197.924 Y7.193 E81.84123
G1 X198.048 Y7.372 E81.84847
G1 X198.1 Y7.617 E81.8568
G1 X198.099 Y19.262 E82.24412
G1 X198.095 Y19.328 E82.24632
G1 X198.017 Y20.036 E82.27001
G1 X197.987 Y20.168 E82.27451
G1 X197.747 Y20.855 E82.29871
G1 X197.679 Y20.996 E82.30392
G1 X197.306 Y21.591 E82.32728
G1 X197.21 Y21.711 E82.33239
G1 X196.712 Y22.209 E82.35581
G1 X196.591 Y22.306 E82.36097
G1 X195.998 Y22.678 E82.38425
G1 X195.859 Y22.746 E82.3894
G1 X195.19 Y22.982 E82.41299
G1 X195.036 Y23.017 E82.41825
G1 X194.317 Y23.096 E82.4423
G1 X194.251 Y23.1 E82.4445
G1 X126.374 Y23.1 E84.7021
G1 X125.501 Y23.198 E84.73132
G1 X124.702 Y23.478 E84.75948
G1 X123.986 Y23.928 E84.78761
G1 X123.395 Y24.519 E84.81541
G1 X122.945 Y25.235 E84.84353
G1 X122.665 Y26.035 E84.87172
G1 X122.567 Y26.907 E84.90091
G1 X122.567 Y212.383 E91.06987
G1 X122.527 Y212.598 E91.07714
G1 X122.274 Y212.924 E91.09086
G1 X122.095 Y213.048 E91.09811
G1 X121.85 Y213.1 E91.10644
G1 X95.542 Y213.1 E91.98144
G1 X95.327 Y213.06 E91.98872
G1 X95.001 Y212.807 E92.00244
G1 X94.877 Y212.628 E92.00969
G1 X94.825 Y212.383 E92.01802
G1 X94.825 Y27.278 E98.17463
G1 X94.725 Y26.39 E98.20435
G1 X94.439 Y25.573 E98.23315
G1 X93.984 Y24.848 E98.26161
G1 X93.371 Y24.237 E98.2904
G1 X92.645 Y23.781 E98.31892
G1 X91.832 Y23.497 E98.34756
G1 X90.939 Y23.395 E98.37745
G1 X26.666 Y23.395 E100.51518
G1 X26.599 Y23.391 E100.51741
G1 X25.676 Y23.288 E100.5483
G1 X25.524 Y23.253 E100.55349
G1 X24.661 Y22.95 E100.58391
G1 X24.521 Y22.882 E100.58909
G1 X23.755 Y22.401 E100.61917
G1 X23.634 Y22.304 E100.62433
G1 X22.99 Y21.66 E100.65462
G1 X22.894 Y21.54 E100.65973
G1 X22.412 Y20.772 E100.68989
G1 X22.344 Y20.632 E100.69507
G1 X22.042 Y19.771 E100.72542
G1 X22.007 Y19.619 E100.7306
G1 X21.904 Y18.698 E100.76143
G1 X21.9 Y18.631 E100.76366
G1 X21.9 Y7.617 E101.12999
G1 X21.94 Y7.402 E101.13726
G0 F2000 X22.359 Y7.476
G1 F1200 X22.476 Y7.359 E101.14276
G1 X22.617 Y7.3 E101.14785
G1 X197.383 Y7.3 E106.96059
G1 X197.524 Y7.359 E106.96567
G1 X197.641 Y7.476 E106.97118
G1 X197.7 Y7.617 E106.97626
G1 X197.698 Y19.284 E107.36431
G1 X197.62 Y19.992 E107.388
G1 X197.61 Y20.036 E107.3895
G1 X197.37 Y20.723 E107.4137
G1 X197.34 Y20.783 E107.41593
G1 X196.954 Y21.397 E107.44005
G1 X196.927 Y21.428 E107.44142
G1 X196.414 Y21.94 E107.46553
G1 X196.378 Y21.967 E107.46702
G1 X195.768 Y22.349 E107.49096
G1 X195.726 Y22.369 E107.49251
G1 X195.057 Y22.605 E107.5161
G1 X194.992 Y22.62 E107.51832
G1 X194.273 Y22.699 E107.54238
G1 X126.355 Y22.7 E109.80134
G1 X125.412 Y22.806 E109.83291
G1 X124.523 Y23.118 E109.86424
G1 X123.736 Y23.612 E109.89515
G1 X123.079 Y24.269 E109.92605
G1 X122.585 Y25.056 E109.95696
G1 X122.273 Y25.946 E109.98832
G1 X122.167 Y26.888 E110.01985
G1 X122.167 Y212.383 E116.18944
G1 X122.108 Y212.524 E116.19452
G1 X121.991 Y212.641 E116.20003
G1 X121.85 Y212.7 E116.20511
G1 X95.542 Y212.7 E117.08012
G1 X95.401 Y212.641 E117.0852
G1 X95.284 Y212.524 E117.09071
G1 X95.225 Y212.383 E117.09579
G1 X95.225 Y27.259 E123.25304
G1 X95.117 Y26.301 E123.2851
G1 X94.799 Y25.395 E123.31704
G1 X94.299 Y24.598 E123.34833
G1 X93.622 Y23.922 E123.38015
G1 X92.824 Y23.421 E123.41149
G1 X91.922 Y23.105 E123.44328
G1 X90.958 Y22.995 E123.47555
G1 X26.666 Y22.995 E125.61391
G1 X26.644 Y22.994 E125.61464
G1 X25.721 Y22.891 E125.64553
G1 X25.657 Y22.876 E125.64772
G1 X24.794 Y22.573 E125.67814
G1 X24.734 Y22.543 E125.68037
G1 X23.968 Y22.062 E125.71046
G1 X23.917 Y22.021 E125.71263
G1 X23.258 Y21.361 E125.74365
G1 X23.233 Y21.327 E125.74506
G1 X22.741 Y20.542 E125.77587
G1 X22.721 Y20.499 E125.77745
G1 X22.414 Y19.621 E125.80838
G1 X22.404 Y19.574 E125.80998
G1 X22.301 Y18.653 E125.84081
G1 X22.3 Y7.617 E126.20787
G1 X22.359 Y7.476 E126.21295
G1 F1800 E119.21295
G1 F300 Z0.4
;MESH:back.stl
G0 F2000 X94.611 Y24.344 Z0.4
;TYPE:WALL-OUTER
G1 F300 Z0.2
G1 F1800 E126.21295
G1 F1200 X93.874 Y23.609 E126.24757
G1 X92.993 Y23.055 E126.28218
G1 X92.011 Y22.711 E126.31679
G1 X90.987 Y22.595 E126.35107
G1 X26.671 Y22.595 E128.49022
G1 X25.778 Y22.495 E128.52011
G1 X24.938 Y22.2 E128.54972
G1 X24.191 Y21.731 E128.57906
G1 X23.564 Y21.104 E128.60855
G1 X23.095 Y20.357 E128.63789
G1 X22.8 Y19.517 E128.6675
G1 X22.7 Y18.624 E128.69739
G1 X22.7 Y7.7 E129.06072
G1 X197.3 Y7.7 E134.86794
G1 X197.3 Y19.246 E135.25196
G1 X197.223 Y19.935 E135.27502
G1 X196.996 Y20.581 E135.29779
G1 X196.636 Y21.155 E135.32033
G1 X196.155 Y21.636 E135.34295
G1 X195.581 Y21.996 E135.36549
G1 X194.935 Y22.223 E135.38826
G1 X194.246 Y22.3 E135.41132
G1 X126.328 Y22.3 E137.67028
G1 X125.321 Y22.414 E137.70399
G1 X124.355 Y22.752 E137.73803
G1 X123.488 Y23.297 E137.77209
G1 X122.764 Y24.021 E137.80615
G1 X122.219 Y24.888 E137.84021
G1 X121.881 Y25.854 E137.87425
G1 X121.767 Y26.86 E137.90792
G1 X121.767 Y212.3 E144.07568
G1 X95.625 Y212.3 E144.94517
G1 X95.625 Y27.233 E151.10052
G1 X95.509 Y26.209 E151.13479
G1 X95.165 Y25.227 E151.1694
G1 X94.611 Y24.344 E151.20407
G0 F2000 X94.47 Y24.203
G0 X94.78 Y23.893
G1 F1800 E144.20407
G1 F300 Z0.4
G0 F2000 X94.894 Y23.779 Z0.4
G0 X106.732 Y182.032
G1 F300 Z0.2
G1 F1800 E151.20407
G1 F1200 X107.252 Y182.291 E151.22339
G1 X107.769 Y182.405 E151.241
G1 X108.298 Y182.391 E151.2586
G1 X108.809 Y182.254 E151.2762
G1 X109.272 Y181.996 E151.29383
G1 X109.659 Y181.635 E151.31143
G1 X109.95 Y181.192 E151.32906
G1 X110.126 Y180.692 E151.34669
G1 X110.176 Y180.166 E151.36426
G1 X110.1 Y179.642 E151.38187
G1 X109.901 Y179.151 E151.3995
G1 X109.589 Y178.723 E151.41711
G1 X109.184 Y178.382 E151.43472
G1 X108.71 Y178.147 E151.45232
G1 X108.193 Y178.032 E151.46993
G1 X107.664 Y178.046 E151.48753
G1 X107.153 Y178.184 E151.50514
G1 X106.691 Y178.442 E151.52274
G1 X106.303 Y178.802 E151.54034
G1 X106.012 Y179.245 E151.55797
G1 X105.836 Y179.745 E151.5756
G1 X105.786 Y180.272 E151.59321
G1 X105.862 Y180.795 E151.61079
G1 X106.061 Y181.286 E151.62841
G1 X106.371 Y181.712 E151.64593
G1 X106.732 Y182.032 E151.66198
G0 F2000 X106.911 Y182.121
G0 X106.506 Y182.366
;TYPE:WALL-INNER
G1 F1200 X107.118 Y182.671 E151.68472
G1 X107.731 Y182.806 E151.7056
G1 X108.356 Y182.79 E151.72639
G1 X108.96 Y182.628 E151.74719
G1 X109.509 Y182.322 E151.76809
G1 X109.967 Y181.895 E151.78892
G1 X110.311 Y181.371 E151.80977
G1 X110.52 Y180.779 E151.83065
G1 X110.579 Y180.156 E151.85146
G1 X110.489 Y179.537 E151.87227
G1 X110.253 Y178.955 E151.89316
G1 X109.884 Y178.448 E151.91401
G1 X109.405 Y178.045 E151.93483
G1 X108.844 Y177.767 E151.95566
G1 X108.232 Y177.631 E151.97651
G1 X107.606 Y177.647 E151.99734
G1 X107.001 Y177.811 E152.01819
G1 X106.454 Y178.116 E152.03902
G1 X105.995 Y178.542 E152.05984
G1 X105.651 Y179.066 E152.08069
G1 X105.442 Y179.658 E152.10157
G1 X105.383 Y180.282 E152.12242
G1 X105.473 Y180.9 E152.14319
G1 X105.709 Y181.482 E152.16408
G1 X106.073 Y181.983 E152.18468
G1 X106.506 Y182.366 E152.2039
G1 F1800 E145.2039
G1 F300 Z0.4
G0 F2000 X106.652 Y182.242 Z0.4
G0 X107.66 Y84.882
;TYPE:WALL-OUTER
G1 F300 Z0.2
G1 F1800 E152.2039
G1 F1200 X107.198 Y85.14 E152.2215
G1 X106.811 Y85.501 E152.23911
G1 X106.521 Y85.944 E152.25672
G1 X106.344 Y86.442 E152.2743
G1 X106.294 Y86.97 E152.29194
G1 X106.37 Y87.494 E152.30955
G1 X106.569 Y87.984 E152.32714
G1 X106.881 Y88.412 E152.34475
G1 X107.285 Y88.753 E152.36234
G1 X107.759 Y88.989 E152.37995
G1 X108.277 Y89.103 E152.39759
G1 X108.806 Y89.089 E152.41519
G1 X109.317 Y88.952 E152.43279
G1 X109.78 Y88.694 E152.45041
G1 X110.167 Y88.333 E152.46802
G1 X110.457 Y87.89 E152.48563
G1 X110.634 Y87.392 E152.50321
G1 X110.684 Y86.864 E152.52085
G1 X110.608 Y86.34 E152.53846
G1 X110.409 Y85.85 E152.55605
