;FLAVOR:Marlin
;TIME:11759
;Filament used: 16.5257m
;Layer height: 0.3
;MINX:19.3
;MINY:29.355
;MINZ:0.2
;MAXX:200.7
;MAXY:188.45
;MAXZ:32.2
;Generated with Cura_SteamEngine 4.7.1
M82 ;absolute extrusion mode
;Sliced at: Thu 10-12-2020 13:11:22
;Basic settings: Layer height: 0.3 Walls: 0.8 Fill: 20
G21 ;metric values
G90 ;absolute positioning
M82 ;set extruder to absolute mode
M107 ;start with the fan off
M117 Start heating ...
M104 S210
M117 Homing X/Y ...
G28 X0 Y0 ;move X/Y to min endstops
M117 Homing Z ...
G28 Z0 ;move Z to min endstops
G1 Z15.0 F100 ;move the platform down 15mm
M117 Heating ...
M109 S210
M117 Start cleaning ...
G92 E0 ;zero the extruded length
G1 F200 E10 ;extrude 10mm of feed stock
G92 E0 ;zero the extruded length again
M117 Intro line ...
G1 Z2.0 F3000 ; Move Z Axis up little to prevent scratching of Heat Bed
G1 X0.1 Y20 Z0.3 F5000.0 ; Move to start position
G1 X0.1 Y200.0 Z0.3 F1500.0 E15 ; Draw the first line
G1 X0.4 Y200.0 Z0.3 F5000.0 ; Move to side a little
G1 X0.4 Y20 Z0.3 F1500.0 E30 ; Draw the second line
G92 E0 ; Reset Extruder
G1 E-1 F500 ; Retract filiment by 1 mm
G1 Z2.0 F3000 ; Move Z Axis up little to prevent scratching of Heat Bed
G1 X5 Y20 Z0.3 F100 ; Move over to prevent blob squish
G1 F100
G92 E0 ; Reset Extruder
M117 Printing...

G92 E0
G92 E0
G1 F1800 E-7
;LAYER_COUNT:107
;LAYER:0
M107
G1 F300 Z0.4
G0 F3000 X20.68 Y32.133 Z0.4
;TYPE:SKIRT
G1 F300 Z0.2
G1 F1800 E0
G1 F2400 X21.117 Y31.878 E0.01683
G1 X21.588 Y31.694 E0.03365
G1 X22.082 Y31.588 E0.05045
G1 X22.74 Y31.551 E0.07237
G1 X44.69 Y31.55 E0.80243
G1 X47.487 Y31.51 E0.89547
G1 X50.204 Y31.395 E0.98592
G1 X52.95 Y31.2 E1.07748
G1 X55.656 Y30.932 E1.16792
G1 X58.379 Y30.584 E1.25923
G1 X61.08 Y30.159 E1.35017
G1 X63.879 Y29.639 E1.44486
G1 X64.929 Y29.427 E1.48048
G1 X65.471 Y29.365 E1.49863
G1 X65.881 Y29.355 E1.51227
G1 X69.28 Y29.355 E1.62532
G1 X69.981 Y29.365 E1.64864
G1 X70.518 Y29.419 E1.66659
G1 X70.893 Y29.488 E1.67927
G1 X73.071 Y29.925 E1.75315
G1 X75.754 Y30.384 E1.84369
G1 X78.441 Y30.766 E1.93396
G1 X81.182 Y31.077 E2.02571
G1 X83.92 Y31.309 E2.1171
G1 X86.644 Y31.463 E2.20785
G1 X90.751 Y31.55 E2.34448
G1 X196.839 Y31.55 E5.87298
G1 X197.537 Y31.56 E5.89619
G1 X198.04 Y31.607 E5.913
G1 X198.53 Y31.733 E5.92982
G1 X198.994 Y31.935 E5.94666
G1 X199.42 Y32.207 E5.96347
G1 X199.798 Y32.542 E5.98027
G1 X200.118 Y32.933 E5.99707
G1 X200.373 Y33.37 E6.0139
G1 X200.556 Y33.841 E6.03071
G1 X200.663 Y34.335 E6.04752
G1 X200.699 Y34.99 E6.06934
G1 X200.7 Y184.554 E11.04385
G1 X200.691 Y185.281 E11.06804
G1 X200.645 Y185.784 E11.08484
G1 X200.52 Y186.274 E11.10166
G1 X200.319 Y186.738 E11.11847
G1 X200.048 Y187.165 E11.13529
G1 X199.713 Y187.544 E11.15212
G1 X199.323 Y187.865 E11.16892
G1 X198.887 Y188.121 E11.18574
G1 X198.416 Y188.304 E11.20254
G1 X197.922 Y188.412 E11.21936
G1 X197.26 Y188.449 E11.24141
G1 X23.166 Y188.45 E17.0318
G1 X22.468 Y188.441 E17.05502
G1 X21.964 Y188.394 E17.07186
G1 X21.474 Y188.269 E17.08868
G1 X21.01 Y188.068 E17.10549
G1 X20.584 Y187.797 E17.12229
G1 X20.205 Y187.462 E17.13911
G1 X19.884 Y187.071 E17.15594
G1 X19.629 Y186.635 E17.17274
G1 X19.445 Y186.164 E17.18955
G1 X19.338 Y185.67 E17.20637
G1 X19.301 Y184.994 E17.22888
G1 X19.3 Y35.381 E22.20503
G1 X19.309 Y34.716 E22.22715
G1 X19.356 Y34.212 E22.24399
G1 X19.482 Y33.723 E22.26078
G1 X19.683 Y33.259 E22.2776
G1 X19.954 Y32.832 E22.29442
G1 X20.289 Y32.454 E22.31122
G1 X20.68 Y32.133 E22.32805
G1 F1800 E15.32805
G1 F300 Z0.4
G0 F3000 X65.751 Y32.755 Z0.4
;TYPE:SUPPORT
G1 F300 Z0.2
G1 F1800 E22.32805
G1 X69.741 Y32.755 E22.46076
G1 X69.741 Y33.75 E22.49385
G1 X65.751 Y33.75 E22.62656
G1 X65.751 Y32.755 E22.65965
G0 F3000 X65.871 Y33.118
G1 F1800 X69.621 Y33.118 E22.78438
G0 F3000 X69.091 Y32.875
G1 F1800 X69.091 Y33.63 E22.80949
G0 F3000 X68.52 Y33.63
G1 F1800 X68.52 Y32.875 E22.8346
G0 F3000 X67.949 Y32.875
G1 F1800 X67.949 Y33.63 E22.85971
G0 F3000 X67.378 Y33.63
G1 F1800 X67.378 Y32.875 E22.88482
G0 F3000 X66.807 Y32.875
G1 F1800 X66.807 Y33.63 E22.90993
G0 F3000 X66.236 Y33.63
G1 F1800 X66.236 Y32.875 E22.93505
G1 F1800 E15.93505
G1 F300 Z0.4
;MESH:bot.stl
G0 F3000 X80.805 Y127.283 Z0.4
;TYPE:WALL-INNER
G1 F300 Z0.2
G1 F1800 E22.93505
G1 X81.41 Y127.122 E22.95587
G1 X81.961 Y126.823 E22.97672
G1 X82.424 Y126.4 E22.99758
G1 X82.772 Y125.878 E23.01844
G1 X82.985 Y125.288 E23.03931
G1 X83.05 Y124.665 E23.06014
G1 X82.966 Y124.045 E23.08095
G1 X82.734 Y123.461 E23.10185
G1 X82.369 Y122.951 E23.12271
G1 X81.894 Y122.542 E23.14356
G1 X81.332 Y122.259 E23.16449
G1 X80.722 Y122.12 E23.1853
G1 X80.096 Y122.13 E23.20612
G1 X79.49 Y122.289 E23.22696
G1 X78.939 Y122.589 E23.24782
G1 X78.476 Y123.013 E23.2687
G1 X78.128 Y123.535 E23.28957
G1 X77.915 Y124.125 E23.31043
G1 X77.85 Y124.747 E23.33123
G1 X77.934 Y125.368 E23.35208
G1 X78.166 Y125.952 E23.37298
G1 X78.531 Y126.462 E23.39384
G1 X79.007 Y126.87 E23.41469
G1 X79.567 Y127.152 E23.43554
G1 X80.177 Y127.293 E23.45637
G1 X80.805 Y127.283 E23.47726
G0 F3000 X80.75 Y126.884
;TYPE:WALL-OUTER
G1 F1800 X81.261 Y126.748 E23.49484
G1 X81.727 Y126.495 E23.51248
G1 X82.118 Y126.138 E23.53009
G1 X82.412 Y125.697 E23.54772
G1 X82.592 Y125.198 E23.56536
G1 X82.647 Y124.671 E23.58298
G1 X82.576 Y124.147 E23.60057
G1 X82.38 Y123.654 E23.61822
G1 X82.072 Y123.223 E23.63584
G1 X81.67 Y122.877 E23.65348
G1 X81.196 Y122.638 E23.67113
G1 X80.68 Y122.521 E23.68873
G1 X80.151 Y122.529 E23.70633
G1 X79.639 Y122.664 E23.72394
G1 X79.173 Y122.917 E23.74158
G1 X78.782 Y123.275 E23.75921
G1 X78.488 Y123.716 E23.77684
G1 X78.308 Y124.215 E23.79448
G1 X78.253 Y124.741 E23.81207
G1 X78.324 Y125.266 E23.82969
G1 X78.52 Y125.759 E23.84734
G1 X78.828 Y126.19 E23.86496
G1 X79.23 Y126.535 E23.88258
G1 X79.704 Y126.773 E23.90022
G1 X80.22 Y126.892 E23.91783
G1 X80.75 Y126.884 E23.93546
G0 F3000 X80.943 Y126.833
G0 X81.055 Y127.258
G1 F1800 E16.93546
G1 F300 Z0.4
G0 F3000 X81.097 Y127.413 Z0.4
G0 X80.805 Y77.283
;TYPE:WALL-INNER
G1 F300 Z0.2
G1 F1800 E23.93546
G1 X81.41 Y77.122 E23.95628
G1 X81.961 Y76.823 E23.97713
G1 X82.424 Y76.4 E23.99799
G1 X82.772 Y75.878 E24.01886
G1 X82.985 Y75.288 E24.03972
G1 X83.05 Y74.665 E24.06055
G1 X82.966 Y74.045 E24.08136
G1 X82.734 Y73.461 E24.10226
G1 X82.369 Y72.951 E24.12312
G1 X81.894 Y72.542 E24.14397
G1 X81.332 Y72.259 E24.1649
G1 X80.722 Y72.12 E24.18571
G1 X80.096 Y72.13 E24.20653
G1 X79.49 Y72.289 E24.22737
G1 X78.939 Y72.589 E24.24824
G1 X78.476 Y73.013 E24.26912
G1 X78.128 Y73.535 E24.28998
G1 X77.915 Y74.125 E24.31085
G1 X77.85 Y74.747 E24.33165
G1 X77.934 Y75.368 E24.35249
G1 X78.166 Y75.952 E24.37339
G1 X78.531 Y76.462 E24.39425
G1 X79.007 Y76.87 E24.4151
G1 X79.567 Y77.152 E24.43596
G1 X80.177 Y77.293 E24.45678
G1 X80.805 Y77.283 E24.47767
G0 F3000 X80.75 Y76.884
;TYPE:WALL-OUTER
G1 F1800 X81.261 Y76.748 E24.49526
G1 X81.727 Y76.495 E24.51289
G1 X82.118 Y76.138 E24.5305
G1 X82.412 Y75.697 E24.54813
G1 X82.592 Y75.198 E24.56578
G1 X82.647 Y74.671 E24.5834
G1 X82.576 Y74.147 E24.60099
G1 X82.38 Y73.654 E24.61863
G1 X82.072 Y73.223 E24.63625
G1 X81.67 Y72.877 E24.65389
G1 X81.196 Y72.638 E24.67155
G1 X80.68 Y72.521 E24.68915
G1 X80.151 Y72.529 E24.70674
G1 X79.639 Y72.664 E24.72435
G1 X79.173 Y72.917 E24.74199
G1 X78.782 Y73.275 E24.75962
G1 X78.488 Y73.716 E24.77725
G1 X78.308 Y74.215 E24.79489
G1 X78.253 Y74.741 E24.81248
G1 X78.324 Y75.266 E24.83011
G1 X78.52 Y75.759 E24.84775
G1 X78.828 Y76.19 E24.86537
G1 X79.23 Y76.535 E24.88299
G1 X79.704 Y76.773 E24.90063
G1 X80.22 Y76.892 E24.91824
G1 X80.75 Y76.884 E24.93587
G0 F3000 X80.943 Y76.833
G0 X81.055 Y77.258
G1 F1800 E17.93587
G1 F300 Z0.4
G0 F3000 X81.097 Y77.413 Z0.4
G0 X138.605 Y77.283
;TYPE:WALL-INNER
G1 F300 Z0.2
G1 F1800 E24.93587
G1 X139.21 Y77.122 E24.9567
G1 X139.761 Y76.823 E24.97755
G1 X140.224 Y76.4 E24.99841
G1 X140.572 Y75.878 E25.01927
G1 X140.785 Y75.288 E25.04013
G1 X140.85 Y74.665 E25.06097
G1 X140.766 Y74.045 E25.08178
G1 X140.534 Y73.461 E25.10268
G1 X140.169 Y72.951 E25.12354
G1 X139.694 Y72.542 E25.14439
G1 X139.132 Y72.259 E25.16531
G1 X138.522 Y72.12 E25.18612
G1 X137.896 Y72.13 E25.20695
G1 X137.29 Y72.289 E25.22778
G1 X136.739 Y72.589 E25.24865
G1 X136.276 Y73.013 E25.26953
G1 X135.928 Y73.535 E25.2904
G1 X135.715 Y74.125 E25.31126
G1 X135.65 Y74.747 E25.33206
G1 X135.734 Y75.368 E25.3529
G1 X135.966 Y75.952 E25.3738
G1 X136.331 Y76.462 E25.39466
G1 X136.807 Y76.87 E25.41552
G1 X137.367 Y77.152 E25.43637
G1 X137.977 Y77.293 E25.45719
G1 X138.605 Y77.283 E25.47808
G0 F3000 X138.55 Y76.884
;TYPE:WALL-OUTER
G1 F1800 X139.061 Y76.748 E25.49567
G1 X139.527 Y76.495 E25.51331
G1 X139.918 Y76.138 E25.53092
G1 X140.212 Y75.697 E25.54855
G1 X140.392 Y75.198 E25.56619
G1 X140.447 Y74.671 E25.58381
G1 X140.376 Y74.147 E25.6014
G1 X140.18 Y73.654 E25.61905
G1 X139.872 Y73.223 E25.63666
G1 X139.47 Y72.877 E25.65431
G1 X138.996 Y72.638 E25.67196
G1 X138.48 Y72.521 E25.68956
G1 X137.951 Y72.529 E25.70716
G1 X137.439 Y72.664 E25.72477
G1 X136.973 Y72.917 E25.7424
G1 X136.582 Y73.275 E25.76004
G1 X136.288 Y73.716 E25.77766
G1 X136.108 Y74.215 E25.79531
G1 X136.053 Y74.741 E25.8129
G1 X136.124 Y75.266 E25.83052
G1 X136.32 Y75.759 E25.84816
G1 X136.628 Y76.19 E25.86578
G1 X137.03 Y76.535 E25.8834
G1 X137.504 Y76.773 E25.90104
G1 X138.02 Y76.892 E25.91866
G1 X138.55 Y76.884 E25.93629
G0 F3000 X138.743 Y76.833
G0 X138.855 Y77.258
G1 F1800 E18.93629
G1 F300 Z0.4
G0 F3000 X138.897 Y77.413 Z0.4
G0 X138.605 Y127.283
;TYPE:WALL-INNER
G1 F300 Z0.2
G1 F1800 E25.93629
G1 X139.21 Y127.122 E25.95711
G1 X139.761 Y126.823 E25.97796
G1 X140.224 Y126.4 E25.99882
G1 X140.572 Y125.878 E26.01969
G1 X140.785 Y125.288 E26.04055
G1 X140.85 Y124.665 E26.06138
G1 X140.766 Y124.045 E26.08219
G1 X140.534 Y123.461 E26.10309
G1 X140.169 Y122.951 E26.12395
G1 X139.694 Y122.542 E26.1448
G1 X139.132 Y122.259 E26.16573
G1 X138.522 Y122.12 E26.18654
G1 X137.896 Y122.13 E26.20736
G1 X137.29 Y122.289 E26.2282
G1 X136.739 Y122.589 E26.24906
G1 X136.276 Y123.013 E26.26995
G1 X135.928 Y123.535 E26.29081
G1 X135.715 Y124.125 E26.31167
G1 X135.65 Y124.747 E26.33248
G1 X135.734 Y125.368 E26.35332
G1 X135.966 Y125.952 E26.37422
G1 X136.331 Y126.462 E26.39508
G1 X136.807 Y126.87 E26.41593
G1 X137.367 Y127.152 E26.43678
G1 X137.977 Y127.293 E26.45761
G1 X138.605 Y127.283 E26.4785
G0 F3000 X138.55 Y126.884
;TYPE:WALL-OUTER
G1 F1800 X139.061 Y126.748 E26.49608
G1 X139.527 Y126.495 E26.51372
G1 X139.918 Y126.138 E26.53133
G1 X140.212 Y125.697 E26.54896
G1 X140.392 Y125.198 E26.5666
G1 X140.447 Y124.671 E26.58423
G1 X140.376 Y124.147 E26.60181
G1 X140.18 Y123.654 E26.61946
G1 X139.872 Y123.223 E26.63708
G1 X139.47 Y122.877 E26.65472
G1 X138.996 Y122.638 E26.67238
G1 X138.48 Y122.521 E26.68997
G1 X137.951 Y122.529 E26.70757
G1 X137.439 Y122.664 E26.72518
G1 X136.973 Y122.917 E26.74282
G1 X136.582 Y123.275 E26.76045
G1 X136.288 Y123.716 E26.77808
G1 X136.108 Y124.215 E26.79572
G1 X136.053 Y124.741 E26.81331
G1 X136.124 Y125.266 E26.83093
G1 X136.32 Y125.759 E26.84858
G1 X136.628 Y126.19 E26.8662
G1 X137.03 Y126.535 E26.88382
G1 X137.504 Y126.773 E26.90146
G1 X138.02 Y126.892 E26.91907
G1 X138.55 Y126.884 E26.9367
G0 F3000 X138.743 Y126.833
G0 X138.855 Y127.258
G1 F1800 E19.9367
G1 F300 Z0.4
G0 F3000 X138.897 Y127.413 Z0.4
G0 X196.9 Y184.65
;TYPE:WALL-INNER
G1 F300 Z0.2
G1 F1800 E26.9367
G1 X23.1 Y184.65 E32.71731
G1 X23.1 Y35.35 E37.68305
G1 X196.9 Y35.35 E43.46366
G1 X196.9 Y184.65 E48.4294
G0 F3000 X197.3 Y185.05
;TYPE:WALL-OUTER
G1 F1800 X22.7 Y185.05 E54.23662
G1 X22.7 Y34.95 E59.22897
G1 X197.3 Y34.95 E65.03619
G1 X197.3 Y185.05 E70.02853
G0 F3000 X197.1 Y185.05
G0 X196.86 Y184.61
G0 X196.51 Y184.26
;TYPE:SKIN
G1 F1800 X23.49 Y184.26 E75.7832
G1 X23.49 Y35.74 E80.723
G1 X196.51 Y35.74 E86.47766
G1 X196.51 Y184.26 E91.41746
G1 F1800 E84.41746
G1 F300 Z0.4
G0 F3000 X196.51 Y184.45 Z0.4
G0 X140.522 Y126.656
G1 F300 Z0.2
G1 F1800 E91.41746
G1 X140.923 Y126.055 E91.44149
G1 X141.168 Y125.376 E91.4655
G1 X141.242 Y124.659 E91.48947
G1 X141.146 Y123.946 E91.5134
G1 X140.879 Y123.272 E91.53751
G1 X140.459 Y122.686 E91.56149
G1 X139.912 Y122.215 E91.5855
G1 X139.265 Y121.889 E91.6096
G1 X138.563 Y121.73 E91.63354
G1 X137.843 Y121.74 E91.65749
G1 X137.145 Y121.924 E91.6815
G1 X136.511 Y122.269 E91.7055
G1 X135.978 Y122.757 E91.72954
G1 X135.577 Y123.358 E91.75357
G1 X135.332 Y124.037 E91.77758
G1 X135.258 Y124.753 E91.80152
G1 X135.354 Y125.467 E91.82548
G1 X135.621 Y126.141 E91.84959
G1 X136.041 Y126.727 E91.87357
G1 X136.589 Y127.197 E91.89758
G1 X137.234 Y127.521 E91.92159
G1 X137.936 Y127.683 E91.94555
G1 X138.659 Y127.673 E91.9696
G1 X139.355 Y127.487 E91.99356
G1 X139.989 Y127.143 E92.01756
G1 X140.522 Y126.656 E92.04157
G1 F1800 E85.04157
G1 F300 Z0.4
G0 F3000 X140.374 Y126.529 Z0.4
G0 X139.355 Y77.487
G1 F300 Z0.2
G1 F1800 E92.04157
G1 X139.989 Y77.143 E92.06556
G1 X140.522 Y76.656 E92.08957
G1 X140.923 Y76.055 E92.1136
G1 X141.168 Y75.376 E92.13761
G1 X141.242 Y74.659 E92.16159
G1 X141.146 Y73.946 E92.18551
G1 X140.879 Y73.272 E92.20963
G1 X140.459 Y72.686 E92.23361
G1 X139.912 Y72.215 E92.25761
G1 X139.265 Y71.889 E92.28171
G1 X138.563 Y71.73 E92.30565
G1 X137.843 Y71.74 E92.3296
G1 X137.145 Y71.924 E92.35361
G1 X136.511 Y72.269 E92.37762
G1 X135.978 Y72.757 E92.40165
G1 X135.577 Y73.358 E92.42568
G1 X135.332 Y74.037 E92.44969
G1 X135.258 Y74.753 E92.47363
G1 X135.354 Y75.467 E92.49759
G1 X135.621 Y76.141 E92.52171
G1 X136.041 Y76.727 E92.54569
G1 X136.589 Y77.197 E92.5697
G1 X137.234 Y77.521 E92.5937
G1 X137.936 Y77.683 E92.61767
G1 X138.659 Y77.673 E92.64172
G1 X139.355 Y77.487 E92.66568
G1 F1800 E85.66568
G1 F300 Z0.4
G0 F3000 X139.282 Y77.306 Z0.4
G0 X82.722 Y76.656
G1 F300 Z0.2
G1 F1800 E92.66568
G1 X83.123 Y76.055 E92.68971
G1 X83.368 Y75.376 E92.71372
G1 X83.442 Y74.659 E92.73769
G1 X83.346 Y73.946 E92.76162
G1 X83.079 Y73.272 E92.78573
G1 X82.659 Y72.686 E92.80971
G1 X82.112 Y72.215 E92.83372
G1 X81.465 Y71.889 E92.85782
G1 X80.763 Y71.73 E92.88176
G1 X80.043 Y71.74 E92.90571
G1 X79.345 Y71.924 E92.92971
G1 X78.711 Y72.269 E92.95372
G1 X78.178 Y72.757 E92.97776
G1 X77.777 Y73.358 E93.00179
G1 X77.532 Y74.037 E93.0258
G1 X77.458 Y74.753 E93.04974
G1 X77.554 Y75.467 E93.0737
G1 X77.821 Y76.141 E93.09781
G1 X78.241 Y76.727 E93.12179
G1 X78.789 Y77.197 E93.1458
G1 X79.434 Y77.521 E93.16981
G1 X80.136 Y77.683 E93.19377
G1 X80.859 Y77.673 E93.21782
G1 X81.555 Y77.487 E93.24178
G1 X82.189 Y77.143 E93.26577
G1 X82.722 Y76.656 E93.28979
G1 F1800 E86.28979
G1 F300 Z0.4
G0 F3000 X82.574 Y76.529 Z0.4
G0 X83.123 Y126.055
G1 F300 Z0.2
G1 F1800 E93.28979
G1 X83.368 Y125.376 E93.3138
G1 X83.442 Y124.659 E93.33777
G1 X83.346 Y123.946 E93.3617
G1 X83.079 Y123.272 E93.38581
G1 X82.659 Y122.686 E93.40979
G1 X82.112 Y122.215 E93.4338
G1 X81.465 Y121.889 E93.4579
G1 X80.763 Y121.73 E93.48184
G1 X80.043 Y121.74 E93.50578
G1 X79.345 Y121.924 E93.52979
G1 X78.711 Y122.269 E93.5538
G1 X78.178 Y122.757 E93.57784
G1 X77.777 Y123.358 E93.60187
G1 X77.532 Y124.037 E93.62588
G1 X77.458 Y124.753 E93.64982
G1 X77.554 Y125.467 E93.67378
G1 X77.821 Y126.141 E93.69789
G1 X78.241 Y126.727 E93.72187
G1 X78.789 Y127.197 E93.74588
G1 X79.434 Y127.521 E93.76989
G1 X80.136 Y127.683 E93.79385
G1 X80.859 Y127.673 E93.8179
G1 X81.555 Y127.487 E93.84186
G1 X82.189 Y127.143 E93.86585
G1 X82.722 Y126.656 E93.88987
G1 X83.123 Y126.055 E93.9139
G1 F1800 E86.9139
G1 F300 Z0.4
G0 F3000 X82.949 Y125.968 Z0.4
G0 X23.99 Y184.078
G1 F300 Z0.2
G1 F1800 E93.9139
G1 X23.669 Y183.758 E93.92897
G0 F3000 X23.669 Y183.192
G1 F1800 X24.555 Y184.078 E93.97065
G0 F3000 X25.121 Y184.078
G1 F1800 X23.669 Y182.627 E94.03892
G0 F3000 X23.669 Y182.061
G1 F1800 X25.687 Y184.078 E94.13382
G0 F3000 X26.252 Y184.078
G1 F1800 X23.669 Y181.495 E94.25531
G0 F3000 X23.669 Y180.93
G1 F1800 X26.818 Y184.078 E94.40341
G0 F3000 X27.384 Y184.078
G1 F1800 X23.669 Y180.364 E94.57813
G0 F3000 X23.669 Y179.798
G1 F1800 X27.949 Y184.078 E94.77945
G0 F3000 X28.515 Y184.078
G1 F1800 X23.669 Y179.233 E95.00736
G0 F3000 X23.669 Y178.667
G1 F1800 X29.081 Y184.078 E95.2619
G0 F3000 X29.646 Y184.078
