;FLAVOR:Marlin
;TIME:430
;Filament used: 0.156024m
;Layer height: 0.2
;MINX:56.064
;MINY:138.128
;MINZ:0.2
;MAXX:73.83
;MAXY:155.905
;MAXZ:9.6
;Generated with Cura_SteamEngine 4.7.1
M82 ;absolute extrusion mode
;Sliced at: Thu 10-12-2020 19:34:07
;Basic settings: Layer height: 0.2 Walls: 0.8 Fill: 20
G21 ;metric values
G90 ;absolute positioning
M82 ;set extruder to absolute mode
M107 ;start with the fan off
M117 Start heating ...
M104 S210.0
M117 Homing X/Y ...
G28 X0 Y0 ;move X/Y to min endstops
M117 Homing Z ...
G28 Z0 ;move Z to min endstops
G1 Z15.0 F100 ;move the platform down 15mm
M117 Heating ...
M109 S210.0
M117 Start cleaning ...
G92 E0 ;zero the extruded length
G1 F200 E10 ;extrude 10mm of feed stock
G92 E0 ;zero the extruded length again
M117 Intro line ...
G1 Z2.0 F3000 ; Move Z Axis up little to prevent scratching of Heat Bed
G1 X0.1 Y20 Z0.2 F5000.0 ; Move to start position
G1 X0.1 Y200.0 Z0.2 F1500.0 E15 ; Draw the first line
G1 X0.4 Y200.0 Z0.2 F5000.0 ; Move to side a little
G1 X0.4 Y20 Z0.3 F1500.0 E30 ; Draw the second line
G92 E0 ; Reset Extruder
G1 E-1 F500 ; Retract filiment by 1 mm
G1 Z2.0 F3000 ; Move Z Axis up little to prevent scratching of Heat Bed
G1 X5 Y20 Z0.3 F100 ; Move over to prevent blob squish
G1 F100
G92 E0 ; Reset Extruder
M117 Printing...

G92 E0
G92 E0
G1 F1800 E-7
;LAYER_COUNT:48
;LAYER:0
M107
G1 F300 Z0.4
G0 F3000 X61.574 Y138.818 Z0.4
;TYPE:SKIRT
G1 F300 Z0.2
G1 F1800 E0
G1 F1200 X62.146 Y138.582 E0.02058
G1 X62.862 Y138.4 E0.04515
G1 X63.518 Y138.286 E0.0673
G1 X63.65 Y138.265 E0.07174
G1 X64.256 Y138.177 E0.09211
G1 X64.874 Y138.128 E0.11273
G1 X65.606 Y138.173 E0.13712
G1 X66.24 Y138.261 E0.15841
G1 X66.423 Y138.29 E0.16457
G1 X67.062 Y138.404 E0.18616
G1 X67.663 Y138.551 E0.20674
G1 X68.137 Y138.729 E0.22358
G1 X68.373 Y138.837 E0.23221
G1 X68.858 Y139.075 E0.25018
G1 X68.976 Y139.135 E0.25459
G1 X69.581 Y139.453 E0.27732
G1 X70.11 Y139.776 E0.29793
G1 X70.688 Y140.254 E0.32288
G1 X71.198 Y140.748 E0.3465
G1 X71.694 Y141.256 E0.37011
G1 X72.097 Y141.727 E0.39073
G1 X72.493 Y142.351 E0.41531
G1 X72.817 Y142.961 E0.43828
G1 X72.884 Y143.092 E0.44317
G1 X73.148 Y143.628 E0.46305
G1 X73.385 Y144.2 E0.48364
G1 X73.54 Y144.766 E0.50316
G1 X73.646 Y145.32 E0.52192
G1 X73.767 Y146.094 E0.54797
G1 X73.823 Y146.716 E0.56875
G1 X73.83 Y147.013 E0.57863
G1 X73.779 Y147.832 E0.60592
G1 X73.688 Y148.43 E0.62604
G1 X73.573 Y149.093 E0.64842
G1 X73.428 Y149.695 E0.66901
G1 X73.15 Y150.393 E0.694
G1 X72.858 Y150.986 E0.71599
G1 X72.793 Y151.113 E0.72073
G1 X72.5 Y151.666 E0.74155
G1 X72.176 Y152.194 E0.76215
G1 X71.68 Y152.791 E0.78797
G1 X71.279 Y153.205 E0.80714
G1 X71.177 Y153.307 E0.81194
G1 X70.713 Y153.758 E0.83346
G1 X70.242 Y154.16 E0.85405
G1 X69.61 Y154.56 E0.87893
G1 X68.978 Y154.894 E0.90271
G1 X68.868 Y154.95 E0.90681
G1 X68.366 Y155.199 E0.92545
G1 X67.794 Y155.438 E0.94607
G1 X67.063 Y155.627 E0.97118
G1 X66.328 Y155.756 E0.996
G1 X66.179 Y155.779 E1.00101
G1 X65.642 Y155.856 E1.01906
G1 X65.025 Y155.905 E1.03964
G1 X64.281 Y155.857 E1.06444
G1 X63.673 Y155.77 E1.08487
G1 X62.908 Y155.641 E1.11067
G1 X62.305 Y155.498 E1.13128
G1 X61.616 Y155.228 E1.1559
G1 X60.913 Y154.887 E1.18188
G1 X60.771 Y154.815 E1.18718
G1 X60.321 Y154.578 E1.2041
G1 X59.793 Y154.255 E1.22468
G1 X59.217 Y153.777 E1.24958
G1 X58.692 Y153.268 E1.2739
G1 X58.583 Y153.159 E1.27903
G1 X58.2 Y152.763 E1.29735
G1 X57.799 Y152.291 E1.31795
G1 X57.405 Y151.667 E1.34249
G1 X57.074 Y151.04 E1.36608
G1 X57.007 Y150.909 E1.37097
G1 X56.755 Y150.394 E1.39004
G1 X56.52 Y149.821 E1.41064
G1 X56.339 Y149.111 E1.43501
G1 X56.221 Y148.436 E1.4578
G1 X56.197 Y148.289 E1.46275
G1 X56.112 Y147.695 E1.48271
G1 X56.064 Y147.077 E1.50333
G1 X56.095 Y146.471 E1.52351
G1 X56.173 Y145.879 E1.54337
G1 X56.218 Y145.595 E1.55293
G1 X56.334 Y144.93 E1.57538
G1 X56.48 Y144.328 E1.59599
G1 X56.753 Y143.643 E1.62051
G1 X57.046 Y143.045 E1.64266
G1 X57.112 Y142.914 E1.64754
G1 X57.4 Y142.369 E1.66804
G1 X57.724 Y141.842 E1.68862
G1 X58.203 Y141.266 E1.71354
G1 X58.754 Y140.701 E1.73978
G1 X59.185 Y140.281 E1.7598
G1 X59.656 Y139.879 E1.7804
G1 X60.285 Y139.479 E1.80519
G1 X60.956 Y139.123 E1.83045
G1 X61.096 Y139.052 E1.83567
G1 X61.574 Y138.818 E1.85337
G0 F3000 X61.749 Y139.177
G1 F1200 X62.298 Y138.953 E1.8731
G1 X62.931 Y138.794 E1.8948
G1 X63.587 Y138.68 E1.91695
G1 X63.708 Y138.661 E1.92102
G1 X64.314 Y138.573 E1.94139
G1 X64.905 Y138.527 E1.96111
G1 X65.551 Y138.569 E1.98264
G1 X66.185 Y138.657 E2.00393
G1 X66.353 Y138.683 E2.00958
G1 X66.992 Y138.797 E2.03117
G1 X67.567 Y138.941 E2.05089
G1 X68.196 Y139.196 E2.07346
G1 X68.681 Y139.434 E2.09143
G1 X68.79 Y139.489 E2.09549
G1 X69.395 Y139.807 E2.11822
G1 X69.9 Y140.118 E2.13795
G1 X70.409 Y140.542 E2.15998
G1 X70.919 Y141.036 E2.1836
G1 X71.012 Y141.128 E2.18795
G1 X71.408 Y141.535 E2.20684
G1 X71.792 Y141.987 E2.22656
G1 X72.14 Y142.539 E2.24826
G1 X72.464 Y143.149 E2.27124
G1 X72.525 Y143.269 E2.27572
G1 X72.789 Y143.805 E2.29559
G1 X73.015 Y144.353 E2.3153
G1 X73.149 Y144.848 E2.33236
G1 X73.252 Y145.39 E2.35071
G1 X73.268 Y145.484 E2.35388
G1 X73.372 Y146.155 E2.37646
G1 X73.423 Y146.725 E2.3955
G1 X73.43 Y147.022 E2.40538
G1 X73.383 Y147.773 E2.43041
G1 X73.294 Y148.362 E2.45022
G1 X73.179 Y149.025 E2.4726
G1 X73.039 Y149.601 E2.49232
G1 X72.791 Y150.217 E2.5144
G1 X72.499 Y150.81 E2.53639
G1 X72.44 Y150.926 E2.54072
G1 X72.147 Y151.479 E2.56153
G1 X71.835 Y151.983 E2.58125
G1 X71.392 Y152.512 E2.6042
G1 X70.991 Y152.926 E2.62337
G1 X70.898 Y153.02 E2.62776
G1 X70.434 Y153.471 E2.64928
G1 X69.982 Y153.855 E2.66901
G1 X69.423 Y154.206 E2.69096
G1 X68.791 Y154.54 E2.71474
G1 X68.69 Y154.592 E2.71852
G1 X68.188 Y154.841 E2.73716
G1 X67.64 Y155.068 E2.75688
G1 X66.994 Y155.233 E2.77906
G1 X66.259 Y155.362 E2.80388
G1 X66.123 Y155.383 E2.80846
G1 X65.586 Y155.46 E2.8265
G1 X64.994 Y155.505 E2.84625
G1 X64.338 Y155.461 E2.86812
G1 X63.73 Y155.374 E2.88854
G1 X63.616 Y155.356 E2.89238
G1 X62.974 Y155.247 E2.91404
G1 X62.398 Y155.109 E2.93374
G1 X61.791 Y154.868 E2.95546
G1 X61.088 Y154.527 E2.98145
G1 X60.958 Y154.461 E2.9863
G1 X60.508 Y154.224 E3.00322
G1 X60.003 Y153.913 E3.02294
G1 X59.495 Y153.49 E3.04493
G1 X58.97 Y152.981 E3.06925
G1 X58.87 Y152.881 E3.07395
G1 X58.487 Y152.485 E3.09228
G1 X58.105 Y152.032 E3.11198
G1 X57.759 Y151.48 E3.13365
G1 X57.428 Y150.853 E3.15723
G1 X57.367 Y150.733 E3.16171
G1 X57.115 Y150.218 E3.18078
G1 X56.891 Y149.669 E3.2005
G1 X56.733 Y149.042 E3.22201
G1 X56.615 Y148.367 E3.2448
G1 X56.593 Y148.232 E3.24935
G1 X56.508 Y147.638 E3.26931
G1 X56.464 Y147.047 E3.28902
G1 X56.492 Y146.516 E3.3067
G1 X56.569 Y145.936 E3.32616
G1 X56.612 Y145.664 E3.33532
G1 X56.728 Y144.999 E3.35777
G1 X56.869 Y144.423 E3.3775
G1 X57.112 Y143.819 E3.39915
G1 X57.405 Y143.221 E3.4213
G1 X57.466 Y143.101 E3.42578
G1 X57.754 Y142.556 E3.44628
G1 X58.066 Y142.052 E3.466
G1 X58.49 Y141.544 E3.488
G1 X58.95 Y141.071 E3.50995
G1 X59.033 Y140.988 E3.51385
G1 X59.464 Y140.568 E3.53387
G1 X59.916 Y140.184 E3.55359
G1 X60.473 Y139.832 E3.57551
G1 X61.144 Y139.476 E3.60077
G1 X61.271 Y139.411 E3.60552
G1 X61.749 Y139.177 E3.62322
G0 F3000 X61.925 Y139.536
G1 F1200 X62.449 Y139.324 E3.64202
G1 X62.999 Y139.188 E3.66087
G1 X63.655 Y139.074 E3.68301
G1 X64.371 Y138.969 E3.70708
G1 X64.935 Y138.927 E3.72589
G1 X65.496 Y138.965 E3.74459
G1 X66.13 Y139.053 E3.76588
G1 X66.283 Y139.077 E3.77103
G1 X66.922 Y139.191 E3.79262
G1 X67.47 Y139.33 E3.81142
G1 X68.02 Y139.555 E3.83119
G1 X68.505 Y139.793 E3.84916
G1 X68.604 Y139.843 E3.85285
G1 X69.209 Y140.161 E3.87558
G1 X69.69 Y140.459 E3.8944
G1 X70.131 Y140.829 E3.91355
G1 X70.641 Y141.323 E3.93716
G1 X70.725 Y141.407 E3.94111
G1 X71.121 Y141.814 E3.96
G1 X71.486 Y142.246 E3.97881
G1 X71.787 Y142.727 E3.99768
G1 X72.111 Y143.337 E4.02066
G1 X72.43 Y143.982 E4.04459
G1 X72.644 Y144.505 E4.06338
G1 X72.793 Y145.102 E4.08385
G1 X72.873 Y145.545 E4.09882
G1 X72.977 Y146.216 E4.12141
G1 X73.023 Y146.735 E4.13873
G1 X73.03 Y147.032 E4.14862
G1 X72.987 Y147.715 E4.17138
G1 X72.9 Y148.294 E4.19085
G1 X72.785 Y148.957 E4.21323
G1 X72.649 Y149.505 E4.23201
G1 X72.433 Y150.04 E4.2512
G1 X72.141 Y150.633 E4.27319
G1 X72.087 Y150.739 E4.27714
G1 X71.794 Y151.292 E4.29796
G1 X71.494 Y151.771 E4.31676
G1 X71.105 Y152.234 E4.33687
G1 X70.704 Y152.648 E4.35604
G1 X70.619 Y152.733 E4.36004
G1 X70.155 Y153.184 E4.38156
G1 X69.723 Y153.549 E4.40037
G1 X69.236 Y153.853 E4.41946
G1 X68.604 Y154.187 E4.44324
G1 X68.01 Y154.482 E4.4653
G1 X67.487 Y154.697 E4.48411
G1 X66.924 Y154.839 E4.50342
G1 X66.189 Y154.968 E4.52824
G1 X66.066 Y154.988 E4.53238
G1 X65.529 Y155.065 E4.55043
G1 X64.965 Y155.105 E4.56923
G1 X64.394 Y155.065 E4.58827
G1 X63.786 Y154.978 E4.6087
G1 X63.683 Y154.962 E4.61216
G1 X63.041 Y154.853 E4.63382
G1 X62.492 Y154.719 E4.65262
G1 X61.965 Y154.508 E4.6715
G1 X61.262 Y154.167 E4.69749
G1 X61.144 Y154.107 E4.70189
G1 X60.694 Y153.87 E4.71881
G1 X60.214 Y153.572 E4.7376
G1 X59.774 Y153.203 E4.7567
G1 X59.249 Y152.694 E4.78102
G1 X59.158 Y152.603 E4.7853
G1 X58.775 Y152.207 E4.80362
G1 X58.411 Y151.774 E4.82244
G1 X58.113 Y151.293 E4.84126
G1 X57.782 Y150.666 E4.86484
G1 X57.726 Y150.557 E4.86891
G1 X57.474 Y150.042 E4.88798
G1 X57.262 Y149.518 E4.90678
G1 X57.127 Y148.973 E4.92546
G1 X57.009 Y148.298 E4.94825
G1 X56.989 Y148.176 E4.95236
G1 X56.904 Y147.582 E4.97232
G1 X56.864 Y147.018 E4.99112
G1 X56.907 Y146.413 E5.0113
G1 X56.997 Y145.79 E5.03223
G1 X57.123 Y145.068 E5.05661
G1 X57.259 Y144.519 E5.07542
G1 X57.471 Y143.995 E5.09422
G1 X57.764 Y143.397 E5.11637
G1 X57.819 Y143.288 E5.12043
G1 X58.107 Y142.743 E5.14093
G1 X58.406 Y142.263 E5.15974
G1 X58.776 Y141.823 E5.17886
G1 X59.236 Y141.35 E5.20081
G1 X59.312 Y141.274 E5.20438
G1 X59.743 Y140.854 E5.2244
G1 X60.175 Y140.489 E5.24321
G1 X60.66 Y140.186 E5.26223
G1 X61.331 Y139.83 E5.28749
G1 X61.447 Y139.77 E5.29184
G1 X61.925 Y139.536 E5.30954
G0 F3000 X62.101 Y139.896
G1 F1200 X62.599 Y139.696 E5.32739
G1 X63.068 Y139.582 E5.34344
G1 X63.724 Y139.468 E5.36559
G1 X63.823 Y139.452 E5.36892
G1 X64.429 Y139.364 E5.38929
G1 X64.964 Y139.327 E5.40713
G1 X65.441 Y139.361 E5.42303
G1 X66.075 Y139.449 E5.44432
G1 X66.212 Y139.471 E5.44894
G1 X66.851 Y139.585 E5.47053
G1 X67.371 Y139.718 E5.48838
G1 X67.844 Y139.914 E5.50541
G1 X68.329 Y140.152 E5.52338
G1 X68.418 Y140.197 E5.52669
G1 X69.023 Y140.515 E5.54942
G1 X69.478 Y140.8 E5.56728
G1 X69.853 Y141.116 E5.58359
G1 X70.363 Y141.61 E5.60721
G1 X70.834 Y142.093 E5.62965
G1 X71.179 Y142.504 E5.64749
G1 X71.433 Y142.914 E5.66354
G1 X71.808 Y143.622 E5.69018
G1 X72.072 Y144.158 E5.71006
G1 X72.272 Y144.656 E5.7279
G1 X72.402 Y145.183 E5.74596
G1 X72.478 Y145.607 E5.76029
G1 X72.582 Y146.278 E5.78287
G1 X72.63 Y147.041 E5.8083
G1 X72.592 Y147.656 E5.82879
G1 X72.506 Y148.225 E5.84793
G1 X72.391 Y148.888 E5.87031
G1 X72.26 Y149.408 E5.88815
G1 X72.074 Y149.863 E5.9045
G1 X71.782 Y150.456 E5.92648
G1 X71.733 Y150.551 E5.93004
G1 X71.44 Y151.104 E5.95085
G1 X71.01 Y151.741 E5.97641
G1 X70.818 Y151.956 E5.986
G1 X70.417 Y152.37 E6.00517
G1 X69.876 Y152.897 E6.03029
G1 X69.465 Y153.242 E6.04814
G1 X69.049 Y153.499 E6.0644
G1 X68.417 Y153.833 E6.08818
G1 X68.335 Y153.875 E6.09124
G1 X67.833 Y154.124 E6.10988
G1 X67.336 Y154.326 E6.12772
G1 X66.855 Y154.445 E6.1442
G1 X66.12 Y154.574 E6.16902
G1 X66.009 Y154.592 E6.17276
G1 X65.472 Y154.669 E6.19081
G1 X64.937 Y154.705 E6.20864
G1 X64.451 Y154.669 E6.22485
G1 X63.843 Y154.582 E6.24528
G1 X63.108 Y154.458 E6.27007
G1 X62.588 Y154.329 E6.28789
G1 X62.14 Y154.148 E6.30396
G1 X61.437 Y153.807 E6.32995
G1 X61.33 Y153.753 E6.33393
G1 X60.88 Y153.516 E6.35085
G1 X60.426 Y153.232 E6.36866
G1 X60.052 Y152.916 E6.38495
G1 X59.527 Y152.407 E6.40927
G1 X59.445 Y152.325 E6.41312
G1 X59.062 Y151.929 E6.43145
G1 X58.719 Y151.517 E6.44928
G1 X58.466 Y151.107 E6.4653
G1 X58.135 Y150.48 E6.48888
G1 X58.085 Y150.381 E6.49257
G1 X57.833 Y149.866 E6.51164
G1 X57.634 Y149.368 E6.52948
G1 X57.521 Y148.904 E6.54536
G1 X57.403 Y148.229 E6.56815
G1 X57.385 Y148.119 E6.57186
G1 X57.3 Y147.525 E6.59182
G1 X57.264 Y146.99 E6.60965
G1 X57.304 Y146.458 E6.6274
G1 X57.392 Y145.853 E6.64773
G1 X57.517 Y145.136 E6.67194
G1 X57.648 Y144.616 E6.68977
G1 X57.83 Y144.171 E6.70576
G1 X58.123 Y143.573 E6.72791
G1 X58.173 Y143.475 E6.73157
G1 X58.461 Y142.93 E6.75207
G1 X58.746 Y142.476 E6.7699
G1 X59.063 Y142.102 E6.78621
G1 X59.523 Y141.629 E6.80815
G1 X60.023 Y141.141 E6.83139
G1 X60.433 Y140.796 E6.84921
G1 X60.848 Y140.539 E6.86545
G1 X61.519 Y140.183 E6.89071
G1 X61.623 Y140.13 E6.8946
G1 X62.101 Y139.896 E6.9123
G0 F3000 X62.277 Y140.255
G1 F1200 X62.747 Y140.069 E6.92911
G1 X63.136 Y139.976 E6.94241
G1 X63.792 Y139.862 E6.96456
G1 X63.88 Y139.848 E6.96752
G1 X64.486 Y139.76 E6.98789
G1 X64.991 Y139.727 E7.00472
G1 X65.386 Y139.757 E7.0179
G1 X66.02 Y139.845 E7.03919
G1 X66.142 Y139.865 E7.0433
G1 X66.781 Y139.979 E7.06489
G1 X67.498 Y140.196 E7.0898
G1 X67.668 Y140.273 E7.09601
G1 X68.232 Y140.551 E7.11692
G1 X68.837 Y140.869 E7.13966
G1 X69.264 Y141.139 E7.15646
G1 X69.574 Y141.403 E7.17
G1 X70.152 Y141.964 E7.19679
G1 X70.548 Y142.371 E7.21568
G1 X70.87 Y142.761 E7.2325
G1 X71.08 Y143.102 E7.24582
G1 X71.449 Y143.799 E7.27205
G1 X71.713 Y144.335 E7.29192
G1 X71.9 Y144.805 E7.30875
G1 X72.029 Y145.363 E7.3278
G1 X72.082 Y145.668 E7.33809
G1 X72.186 Y146.339 E7.36068
G1 X72.23 Y147.051 E7.3844
G1 X72.196 Y147.597 E7.4026
G1 X72.112 Y148.157 E7.42143
G1 X71.997 Y148.82 E7.44381
G1 X71.871 Y149.31 E7.46064
G1 X71.715 Y149.687 E7.47421
G1 X71.423 Y150.28 E7.4962
G1 X71.38 Y150.364 E7.49933
G1 X71.087 Y150.917 E7.52015
G1 X70.705 Y151.483 E7.54286
G1 X70.531 Y151.677 E7.55153
G1 X70.13 Y152.091 E7.5707
G1 X70.061 Y152.16 E7.57394
G1 X69.597 Y152.611 E7.59547
G1 X69.208 Y152.933 E7.61226
G1 X68.862 Y153.145 E7.62576
G1 X68.157 Y153.517 E7.65227
G1 X67.655 Y153.766 E7.67091
G1 X67.186 Y153.954 E7.68771
G1 X66.786 Y154.051 E7.7014
G1 X66.051 Y154.18 E7.72622
G1 X65.952 Y154.196 E7.72956
G1 X65.415 Y154.273 E7.7476
G1 X64.911 Y154.305 E7.7644
G1 X64.508 Y154.273 E7.77785
G1 X63.817 Y154.173 E7.80107
G1 X63.175 Y154.064 E7.82273
G1 X62.685 Y153.94 E7.83954
G1 X62.314 Y153.788 E7.85287
G1 X61.611 Y153.447 E7.87886
G1 X61.517 Y153.399 E7.88237
G1 X61.067 Y153.162 E7.89929
G1 X60.64 Y152.892 E7.91609
G1 X60.331 Y152.628 E7.92961
G1 X59.733 Y152.047 E7.95734
G1 X59.35 Y151.651 E7.97566
G1 X59.028 Y151.261 E7.99248
G1 X58.82 Y150.92 E8.00577
G1 X58.489 Y150.293 E8.02935
G1 X58.193 Y149.69 E8.05169
G1 X58.007 Y149.22 E8.0685
G1 X57.915 Y148.835 E8.08167
G1 X57.781 Y148.062 E8.10776
G1 X57.696 Y147.468 E8.12772
G1 X57.664 Y146.964 E8.14452
G1 X57.713 Y146.413 E8.16292
G1 X57.787 Y145.916 E8.17963
G1 X57.911 Y145.205 E8.20363
G1 X58.037 Y144.715 E8.22046
G1 X58.189 Y144.347 E8.2337
G1 X58.482 Y143.749 E8.25585
G1 X58.815 Y143.117 E8.27961
G1 X59.086 Y142.69 E8.29643
G1 X59.35 Y142.381 E8.30995
G1 X59.81 Y141.908 E8.3319
G1 X60.302 Y141.427 E8.35478
G1 X60.691 Y141.104 E8.3716
G1 X61.035 Y140.892 E8.38504
G1 X61.706 Y140.536 E8.4103
G1 X61.799 Y140.489 E8.41377
G1 X62.277 Y140.255 E8.43147
G1 F1800 E1.43147
G1 F300 Z0.4
;MESH:Little_Volume_Knob_acortado.stl
G0 F3000 X63.871 Y143.697 Z0.4
;TYPE:WALL-INNER
G1 F300 Z0.2
G1 F1800 E8.43147
G1 F1200 X64.955 Y143.524 E8.46798
G1 X65.37 Y143.588 E8.48194
G1 X66.03 Y143.695 E8.50418
G1 X67.007 Y144.191 E8.54063
G1 X67.779 Y144.963 E8.57694
G1 X67.896 Y145.193 E8.58552
G1 X67.948 Y145.295 E8.58933
G1 X68.043 Y145.481 E8.59628
G1 X67.719 Y145.412 E8.60176
G1 X67.604 Y145.412 E8.60501
G1 X65.602 Y145.412 E8.6716
G1 X65.153 Y145.488 E8.68675
G1 X64.702 Y145.715 E8.70354
G1 X64.325 Y146.108 E8.72165
G1 X64.109 Y146.565 E8.73846
G1 X64.046 Y147.059 E8.75503
G1 X64.124 Y147.517 E8.77048
G1 X64.353 Y147.969 E8.78733
G1 X64.747 Y148.345 E8.80545
G1 X65.196 Y148.556 E8.82195
G1 X65.607 Y148.618 E8.83577
G1 X67.602 Y148.618 E8.90213
G1 X67.716 Y148.618 E8.90592
G1 X68.041 Y148.552 E8.91695
G1 X67.947 Y148.736 E8.91833
G1 X67.895 Y148.837 E8.92154
G1 X67.777 Y149.067 E8.93014
