;FLAVOR:Marlin
;TIME:26292
;Filament used: 35.8437m
;Layer height: 0.3
;MINX:19.4
;MINY:33.15
;MINZ:0.2
;MAXX:200.6
;MAXY:186.85
;MAXZ:39.8
;Generated with Cura_SteamEngine 4.7.1
M82 ;absolute extrusion mode
;Sliced at: Fri 11-12-2020 08:26:07
;Basic settings: Layer height: 0.3 Walls: 0.8 Fill: 20
G21 ;metric values
G90 ;absolute positioning
M82 ;set extruder to absolute mode
M107 ;start with the fan off
M117 Start heating ...
M104 S210
M117 Homing X/Y ...
G28 X0 Y0 ;move X/Y to min endstops
M117 Homing Z ...
G28 Z0 ;move Z to min endstops
G1 Z15.0 F100 ;move the platform down 15mm
M117 Heating ...
M109 S210
M117 Start cleaning ...
G92 E0 ;zero the extruded length
G1 F200 E10 ;extrude 10mm of feed stock
G92 E0 ;zero the extruded length again
M117 Intro line ...
G1 Z2.0 F3000 ; Move Z Axis up little to prevent scratching of Heat Bed
G1 X0.1 Y20 Z0.3 F5000.0 ; Move to start position
G1 X0.1 Y200.0 Z0.3 F1500.0 E15 ; Draw the first line
G1 X0.4 Y200.0 Z0.3 F5000.0 ; Move to side a little
G1 X0.4 Y20 Z0.3 F1500.0 E30 ; Draw the second line
G92 E0 ; Reset Extruder
G1 E-1 F500 ; Retract filiment by 1 mm
G1 Z2.0 F3000 ; Move Z Axis up little to prevent scratching of Heat Bed
G1 X5 Y20 Z0.3 F100 ; Move over to prevent blob squish
G1 F100
G92 E0 ; Reset Extruder
M117 Printing...

G92 E0
G92 E0
G1 F1800 E-7
;LAYER_COUNT:133
;LAYER:0
M107
G1 F300 Z0.4
G0 F2000 X19.872 Y33.202 Z0.4
;TYPE:SKIRT
G1 F300 Z0.2
G1 F1800 E0
G1 F1200 X20.117 Y33.15 E0.00833
G1 X199.883 Y33.15 E5.98737
G1 X200.098 Y33.19 E5.99465
G1 X200.424 Y33.443 E6.00837
G1 X200.548 Y33.622 E6.01561
G1 X200.6 Y33.867 E6.02394
G1 X200.6 Y186.133 E11.08833
G1 X200.56 Y186.348 E11.0956
G1 X200.307 Y186.674 E11.10933
G1 X200.128 Y186.798 E11.11657
G1 X199.883 Y186.85 E11.1249
G1 X20.117 Y186.85 E17.10394
G1 X19.902 Y186.81 E17.11122
G1 X19.576 Y186.557 E17.12494
G1 X19.452 Y186.378 E17.13218
G1 X19.4 Y186.133 E17.14052
G1 X19.4 Y33.867 E22.2049
G1 X19.44 Y33.652 E22.21218
G1 X19.693 Y33.326 E22.2259
G1 X19.872 Y33.202 E22.23314
G0 F2000 X19.976 Y33.609
G1 F1200 X20.117 Y33.55 E22.23823
G1 X199.883 Y33.55 E28.21727
G1 X200.024 Y33.609 E28.22235
G1 X200.141 Y33.726 E28.22786
G1 X200.2 Y33.867 E28.23294
G1 X200.2 Y186.133 E33.29733
G1 X200.141 Y186.274 E33.30241
G1 X200.024 Y186.391 E33.30791
G1 X199.883 Y186.45 E33.313
G1 X20.117 Y186.45 E39.29204
G1 X19.976 Y186.391 E39.29712
G1 X19.859 Y186.274 E39.30263
G1 X19.8 Y186.133 E39.30771
G1 X19.8 Y33.867 E44.3721
G1 X19.859 Y33.726 E44.37718
G1 X19.976 Y33.609 E44.38269
G1 F1800 E37.38269
G1 F300 Z0.4
;MESH:top.stl
G0 F2000 X199.8 Y186.05 Z0.4
;TYPE:WALL-OUTER
G1 F300 Z0.2
G1 F1800 E44.38269
G1 F1200 X20.2 Y186.05 E50.35621
G1 X20.2 Y33.95 E55.41507
G1 X199.8 Y33.95 E61.38859
G1 X199.8 Y186.05 E66.44746
G0 F2000 X199.6 Y186.05
G0 X199.36 Y185.61
G1 F1800 E59.44746
G1 F300 Z0.4
G0 F2000 X199.472 Y185.722 Z0.4
G0 X78.595 Y70.957
G1 F300 Z0.2
G1 F1800 E66.44746
G1 F1200 X78.021 Y71.791 E66.48113
G1 X77.661 Y72.737 E66.5148
G1 X77.54 Y73.743 E66.5485
G1 X77.661 Y74.748 E66.58217
G1 X78.021 Y75.696 E66.61589
G1 X78.596 Y76.529 E66.64956
G1 X79.355 Y77.201 E66.68328
G1 X80.252 Y77.671 E66.71696
G1 X81.236 Y77.914 E66.75067
G1 X82.248 Y77.914 E66.78433
G1 X83.232 Y77.671 E66.81804
G1 X84.124 Y77.204 E66.85153
G1 X84.887 Y76.528 E66.88543
G1 X85.461 Y75.695 E66.91908
G1 X85.821 Y74.747 E66.95281
G1 X85.942 Y73.742 E66.98647
G1 X85.821 Y72.737 E67.02014
G1 X85.461 Y71.789 E67.05387
G1 X84.889 Y70.959 E67.0874
G1 X84.127 Y70.284 E67.12125
G1 X83.246 Y69.822 E67.15434
G1 X83.184 Y69.802 E67.15651
G1 X82.276 Y69.579 E67.18761
G1 X82.21 Y69.571 E67.18982
G1 X81.273 Y69.57 E67.22098
G1 X81.207 Y69.578 E67.22319
G1 X80.3 Y69.801 E67.25426
G1 X80.238 Y69.821 E67.25643
G1 X79.354 Y70.286 E67.28965
G1 X78.595 Y70.957 E67.32334
G0 F2000 X78.482 Y71.121
G0 X78.293 Y70.69
;TYPE:WALL-INNER
G1 F1200 X77.664 Y71.604 E67.36024
G1 X77.27 Y72.641 E67.39714
G1 X77.137 Y73.743 E67.43406
G1 X77.27 Y74.844 E67.47095
G1 X77.664 Y75.883 E67.5079
G1 X78.294 Y76.796 E67.5448
G1 X79.126 Y77.533 E67.58177
G1 X80.109 Y78.048 E67.61868
G1 X81.187 Y78.314 E67.65561
G1 X82.297 Y78.314 E67.69252
G1 X83.375 Y78.048 E67.72945
G1 X84.353 Y77.536 E67.76617
G1 X85.189 Y76.795 E67.80333
G1 X85.818 Y75.882 E67.8402
G1 X86.212 Y74.843 E67.87716
G1 X86.345 Y73.742 E67.91405
G1 X86.212 Y72.641 E67.95093
G1 X85.818 Y71.602 E67.98789
G1 X85.191 Y70.692 E68.02465
G1 X84.356 Y69.952 E68.06175
G1 X83.401 Y69.452 E68.09761
G1 X83.293 Y69.417 E68.10138
G1 X82.348 Y69.185 E68.13375
G1 X82.234 Y69.171 E68.13757
G1 X81.249 Y69.17 E68.17033
G1 X81.135 Y69.184 E68.17415
G1 X80.191 Y69.416 E68.20648
G1 X80.082 Y69.451 E68.21029
G1 X79.125 Y69.954 E68.24625
G1 X78.293 Y70.69 E68.28319
G1 F1800 E61.28319
G1 F300 Z0.4
G0 F2000 X78.401 Y70.848 Z0.4
G0 X78.595 Y120.957
;TYPE:WALL-OUTER
G1 F300 Z0.2
G1 F1800 E68.28319
G1 F1200 X78.021 Y121.791 E68.31687
G1 X77.661 Y122.737 E68.35053
G1 X77.54 Y123.743 E68.38423
G1 X77.661 Y124.748 E68.4179
G1 X78.021 Y125.696 E68.45163
G1 X78.596 Y126.529 E68.4853
G1 X79.354 Y127.199 E68.51894
G1 X79.386 Y127.219 E68.5202
G1 X80.208 Y127.649 E68.55105
G1 X80.272 Y127.677 E68.55338
G1 X81.242 Y127.915 E68.5866
G1 X82.193 Y127.916 E68.61823
G1 X82.304 Y127.901 E68.62195
G1 X83.22 Y127.675 E68.65333
G1 X83.282 Y127.646 E68.65561
G1 X84.104 Y127.215 E68.68648
G1 X84.133 Y127.196 E68.68763
G1 X84.887 Y126.528 E68.72114
G1 X85.461 Y125.695 E68.75478
G1 X85.821 Y124.747 E68.78851
G1 X85.942 Y123.742 E68.82218
G1 X85.821 Y122.737 E68.85585
G1 X85.461 Y121.789 E68.88957
G1 X84.889 Y120.959 E68.9231
G1 X84.127 Y120.284 E68.95696
G1 X83.23 Y119.815 E68.99062
G1 X82.246 Y119.572 E69.02433
G1 X81.234 Y119.572 E69.05799
G1 X80.25 Y119.815 E69.0917
G1 X79.354 Y120.286 E69.12537
G1 X78.595 Y120.957 E69.15907
G0 F2000 X78.482 Y121.121
G0 X78.293 Y120.69
;TYPE:WALL-INNER
G1 F1200 X77.664 Y121.604 E69.19597
G1 X77.27 Y122.641 E69.23287
G1 X77.137 Y123.743 E69.26979
G1 X77.27 Y124.844 E69.30667
G1 X77.664 Y125.883 E69.34363
G1 X78.295 Y126.796 E69.38054
G1 X79.114 Y127.521 E69.41692
G1 X79.187 Y127.566 E69.41977
G1 X80.035 Y128.01 E69.45161
G1 X80.143 Y128.057 E69.45553
G1 X81.193 Y128.315 E69.49149
G1 X82.22 Y128.316 E69.52565
G1 X82.379 Y128.295 E69.53098
G1 X83.354 Y128.054 E69.56439
G1 X83.46 Y128.004 E69.56829
G1 X84.307 Y127.56 E69.60009
G1 X84.377 Y127.515 E69.60286
G1 X85.189 Y126.795 E69.63896
G1 X85.818 Y125.882 E69.67583
G1 X86.212 Y124.843 E69.71279
G1 X86.345 Y123.742 E69.74968
G1 X86.212 Y122.641 E69.78656
G1 X85.818 Y121.602 E69.82352
G1 X85.191 Y120.692 E69.86028
G1 X84.356 Y119.952 E69.89738
G1 X83.373 Y119.438 E69.93428
G1 X82.295 Y119.172 E69.97121
G1 X81.185 Y119.172 E70.00813
G1 X80.107 Y119.438 E70.04506
G1 X79.125 Y119.954 E70.08195
G1 X78.293 Y120.69 E70.1189
G1 F1800 E63.1189
G1 F300 Z0.4
G0 F2000 X78.401 Y120.848 Z0.4
G0 X142.676 Y120.907
;TYPE:WALL-OUTER
G1 F300 Z0.2
G1 F1800 E70.1189
G1 F1200 X141.917 Y120.236 E70.15259
G1 X141.017 Y119.763 E70.18641
G1 X140.034 Y119.522 E70.22007
G1 X139.023 Y119.522 E70.2537
G1 X138.039 Y119.766 E70.28742
G1 X137.143 Y120.235 E70.32106
G1 X136.386 Y120.907 E70.35472
G1 X135.812 Y121.74 E70.38837
G1 X135.452 Y122.687 E70.42207
G1 X135.331 Y123.69 E70.45567
G1 X135.451 Y124.693 E70.48927
G1 X135.811 Y125.64 E70.52296
G1 X136.385 Y126.473 E70.55661
G1 X137.149 Y127.15 E70.59056
G1 X137.995 Y127.592 E70.62231
G1 X138.057 Y127.622 E70.6246
G1 X139.029 Y127.86 E70.65788
G1 X139.977 Y127.861 E70.68941
G1 X140.089 Y127.847 E70.69317
G1 X141.006 Y127.621 E70.72458
G1 X141.068 Y127.592 E70.72686
G1 X141.891 Y127.161 E70.75776
G1 X141.921 Y127.14 E70.75897
G1 X142.676 Y126.473 E70.79248
G1 X143.247 Y125.644 E70.82596
G1 X143.608 Y124.692 E70.85982
G1 X143.729 Y123.687 E70.89349
G1 X143.609 Y122.688 E70.92696
G1 X143.249 Y121.742 E70.96062
G1 X142.676 Y120.907 E70.99431
G0 F2000 X142.527 Y120.775
G0 X142.978 Y120.64
;TYPE:WALL-INNER
G1 F1200 X142.146 Y119.904 E71.03125
G1 X141.16 Y119.386 E71.0683
G1 X140.082 Y119.122 E71.10521
G1 X138.974 Y119.122 E71.14206
G1 X137.896 Y119.389 E71.179
G1 X136.914 Y119.903 E71.21587
G1 X136.084 Y120.64 E71.25278
G1 X135.455 Y121.553 E71.28966
G1 X135.061 Y122.591 E71.32659
G1 X134.928 Y123.69 E71.36341
G1 X135.06 Y124.789 E71.40022
G1 X135.454 Y125.827 E71.43715
G1 X136.083 Y126.74 E71.47402
G1 X136.92 Y127.482 E71.51123
G1 X137.815 Y127.949 E71.5448
G1 X137.921 Y128 E71.54872
G1 X138.981 Y128.26 E71.58502
G1 X140.002 Y128.261 E71.61898
G1 X140.162 Y128.241 E71.62434
G1 X141.14 Y128 E71.65784
G1 X141.246 Y127.951 E71.66172
G1 X142.099 Y127.503 E71.69377
G1 X142.169 Y127.455 E71.69659
G1 X142.978 Y126.74 E71.7325
G1 X143.604 Y125.831 E71.76921
G1 X143.999 Y124.788 E71.80631
G1 X144.132 Y123.687 E71.84319
G1 X144 Y122.592 E71.87988
G1 X143.606 Y121.555 E71.91677
G1 X142.978 Y120.64 E71.95368
G1 F1800 E64.95368
G1 F300 Z0.4
G0 F2000 X142.87 Y120.797 Z0.4
G0 X199.4 Y185.65
G1 F300 Z0.2
G1 F1800 E71.95368
G1 F1200 X20.6 Y185.65 E77.9006
G1 X20.6 Y34.35 E82.93285
G1 X199.4 Y34.35 E88.87977
G1 X199.4 Y185.65 E93.91203
G0 F2000 X199.01 Y185.26
;TYPE:SKIN
G1 F1200 X20.99 Y185.26 E99.83299
G1 X20.99 Y34.74 E104.83931
G1 X199.01 Y34.74 E110.76028
G1 X199.01 Y185.26 E115.7666
G1 F1800 E108.7666
G1 F300 Z0.4
G0 F2000 X199.01 Y185.45 Z0.4
G0 X143.272 Y127.001
G1 F300 Z0.2
G1 F1800 E115.7666
G1 F1200 X143.952 Y126.013 E115.80649
G1 X144.381 Y124.882 E115.84672
G1 X144.524 Y123.687 E115.88675
G1 X144.382 Y122.498 E115.92658
G1 X143.954 Y121.373 E115.96661
G1 X143.272 Y120.38 E116.00668
G1 X142.369 Y119.58 E116.0468
G1 X141.299 Y119.019 E116.08699
G1 X140.129 Y118.732 E116.12705
G1 X138.927 Y118.732 E116.16703
G1 X137.757 Y119.022 E116.20712
G1 X136.691 Y119.579 E116.24713
G1 X135.79 Y120.38 E116.28722
G1 X135.108 Y121.37 E116.32721
G1 X134.679 Y122.497 E116.36732
G1 X134.536 Y123.69 E116.40728
G1 X134.678 Y124.883 E116.44724
G1 X135.107 Y126.01 E116.48735
G1 X135.789 Y127.001 E116.52736
G1 X136.697 Y127.806 E116.56772
G1 X137.64 Y128.298 E116.6031
G1 X137.789 Y128.369 E116.60859
G1 X138.934 Y128.65 E116.6478
G1 X140.026 Y128.651 E116.68412
G1 X140.233 Y128.625 E116.69106
G1 X141.269 Y128.37 E116.72654
G1 X141.419 Y128.3 E116.73205
G1 X142.3 Y127.838 E116.76514
G1 X142.409 Y127.763 E116.76954
G1 X143.272 Y127.001 E116.80783
G1 F1800 E109.80783
G1 F300 Z0.4
G0 F2000 X143.126 Y126.872 Z0.4
G0 X86.165 Y126.065
G1 F300 Z0.2
G1 F1800 E116.80783
G1 F1200 X86.594 Y124.937 E116.84797
G1 X86.737 Y123.742 E116.888
G1 X86.594 Y122.547 E116.92803
G1 X86.165 Y121.419 E116.96817
G1 X85.485 Y120.431 E117.00806
G1 X84.579 Y119.628 E117.04832
G1 X83.512 Y119.071 E117.08836
G1 X82.342 Y118.782 E117.12844
G1 X81.138 Y118.782 E117.16849
G1 X79.967 Y119.071 E117.2086
G1 X78.902 Y119.63 E117.24861
G1 X77.999 Y120.429 E117.28871
G1 X77.317 Y121.421 E117.32875
G1 X76.888 Y122.547 E117.36883
G1 X76.745 Y123.743 E117.40889
G1 X76.888 Y124.938 E117.44892
G1 X77.317 Y126.066 E117.48906
G1 X78.001 Y127.057 E117.52911
G1 X78.88 Y127.835 E117.56815
G1 X78.994 Y127.905 E117.5726
G1 X79.867 Y128.363 E117.60539
G1 X80.018 Y128.428 E117.61086
G1 X81.146 Y128.705 E117.64949
G1 X82.245 Y128.706 E117.68604
G1 X82.451 Y128.679 E117.69295
G1 X83.485 Y128.423 E117.72838
G1 X83.633 Y128.353 E117.73383
G1 X84.504 Y127.897 E117.76653
G1 X84.613 Y127.827 E117.77083
G1 X85.483 Y127.056 E117.8095
G1 X86.165 Y126.065 E117.84951
G1 F1800 E110.84951
G1 F300 Z0.4
G0 F2000 X85.993 Y125.974 Z0.4
G0 X85.483 Y77.056
G1 F300 Z0.2
G1 F1800 E117.84951
G1 F1200 X86.165 Y76.065 E117.88952
G1 X86.594 Y74.937 E117.92966
G1 X86.737 Y73.742 E117.96969
G1 X86.594 Y72.547 E118.00972
G1 X86.165 Y71.419 E118.04986
G1 X85.485 Y70.431 E118.08975
G1 X84.579 Y69.628 E118.13002
G1 X83.553 Y69.091 E118.16853
G1 X83.4 Y69.042 E118.17388
G1 X82.418 Y68.801 E118.20751
G1 X82.258 Y68.781 E118.21287
G1 X81.225 Y68.78 E118.24723
G1 X81.065 Y68.8 E118.25259
G1 X80.084 Y69.04 E118.28618
G1 X79.93 Y69.09 E118.29157
G1 X78.902 Y69.63 E118.33019
G1 X77.999 Y70.429 E118.37029
G1 X77.317 Y71.421 E118.41033
G1 X76.888 Y72.547 E118.45041
G1 X76.745 Y73.743 E118.49047
G1 X76.888 Y74.938 E118.5305
G1 X77.317 Y76.066 E118.57064
G1 X78 Y77.057 E118.61067
G1 X78.903 Y77.857 E118.65079
G1 X79.97 Y78.415 E118.69084
G1 X81.14 Y78.704 E118.73093
G1 X82.344 Y78.704 E118.77097
G1 X83.514 Y78.415 E118.81106
G1 X84.576 Y77.86 E118.85091
G1 X85.483 Y77.056 E118.89122
G1 F1800 E111.89122
G1 F300 Z0.4
G0 F2000 X85.337 Y76.927 Z0.4
G0 X198.829 Y35.346
G1 F300 Z0.2
G1 F1800 E118.89122
G1 F1200 X198.403 Y34.92 E118.91126
G0 F2000 X197.837 Y34.92
G1 F1200 X198.829 Y35.911 E118.9579
G0 F2000 X198.829 Y36.477
G1 F1200 X197.272 Y34.92 E119.03114
G0 F2000 X196.706 Y34.92
G1 F1200 X198.829 Y37.043 E119.13099
G0 F2000 X198.829 Y37.608
G1 F1200 X196.14 Y34.92 E119.25745
G0 F2000 X195.575 Y34.92
G1 F1200 X198.829 Y38.174 E119.41051
G0 F2000 X198.829 Y38.74
G1 F1200 X195.009 Y34.92 E119.59019
G0 F2000 X194.443 Y34.92
G1 F1200 X198.829 Y39.305 E119.79647
G0 F2000 X198.829 Y39.871
G1 F1200 X193.878 Y34.92 E120.02935
G0 F2000 X193.312 Y34.92
G1 F1200 X198.829 Y40.437 E120.28886
G0 F2000 X198.829 Y41.003
G1 F1200 X192.746 Y34.92 E120.57498
G0 F2000 X192.181 Y34.92
G1 F1200 X198.829 Y41.568 E120.88768
G0 F2000 X198.829 Y42.134
G1 F1200 X191.615 Y34.92 E121.22701
G0 F2000 X191.049 Y34.92
G1 F1200 X198.829 Y42.7 E121.59296
G0 F2000 X198.829 Y43.265
G1 F1200 X190.483 Y34.92 E121.9855
G0 F2000 X189.918 Y34.92
G1 F1200 X198.829 Y43.831 E122.40465
G0 F2000 X198.829 Y44.397
G1 F1200 X189.352 Y34.92 E122.85042
G0 F2000 X188.786 Y34.92
G1 F1200 X198.829 Y44.962 E123.32279
G0 F2000 X198.829 Y45.528
G1 F1200 X188.221 Y34.92 E123.82175
G0 F2000 X187.655 Y34.92
G1 F1200 X198.829 Y46.094 E124.34734
G0 F2000 X198.829 Y46.659
G1 F1200 X187.089 Y34.92 E124.89953
G0 F2000 X186.524 Y34.92
G1 F1200 X198.829 Y47.225 E125.47832
G0 F2000 X198.829 Y47.791
G1 F1200 X185.958 Y34.92 E126.08374
G0 F2000 X185.392 Y34.92
G1 F1200 X198.829 Y48.356 E126.71575
G0 F2000 X198.829 Y48.922
G1 F1200 X184.827 Y34.92 E127.37436
G0 F2000 X184.261 Y34.92
G1 F1200 X198.829 Y49.488 E128.05959
G0 F2000 X198.829 Y50.053
G1 F1200 X183.695 Y34.92 E128.77143
G0 F2000 X183.13 Y34.92
G1 F1200 X198.829 Y50.619 E129.50986
G0 F2000 X198.829 Y51.185
G1 F1200 X182.564 Y34.92 E130.27491
G0 F2000 X181.998 Y34.92
G1 F1200 X198.829 Y51.751 E131.06659
G0 F2000 X198.829 Y52.316
G1 F1200 X181.432 Y34.92 E131.88487
G0 F2000 X180.867 Y34.92
G1 F1200 X198.829 Y52.882 E132.72975
G0 F2000 X198.829 Y53.448
G1 F1200 X180.301 Y34.92 E133.60125
G0 F2000 X179.735 Y34.92
G1 F1200 X198.829 Y54.013 E134.49935
G0 F2000 X198.829 Y54.579
G1 F1200 X179.17 Y34.92 E135.42405
G0 F2000 X178.604 Y34.92
G1 F1200 X198.829 Y55.145 E136.37537
G0 F2000 X198.829 Y55.71
G1 F1200 X178.038 Y34.92 E137.35329
G0 F2000 X177.473 Y34.92
G1 F1200 X198.829 Y56.276 E138.35781
G0 F2000 X198.829 Y56.842
G1 F1200 X176.907 Y34.92 E139.38896
G0 F2000 X176.341 Y34.92
G1 F1200 X198.829 Y57.407 E140.4467
G0 F2000 X198.829 Y57.973
G1 F1200 X175.776 Y34.92 E141.53104
G0 F2000 X175.21 Y34.92
G1 F1200 X198.829 Y58.539 E142.64201
G0 F2000 X198.829 Y59.104
G1 F1200 X174.644 Y34.92 E143.77957
G0 F2000 X174.079 Y34.92
G1 F1200 X198.829 Y59.67 E144.94374
G0 F2000 X198.829 Y60.236
G1 F1200 X173.513 Y34.92 E146.13452
G0 F2000 X172.947 Y34.92
G1 F1200 X198.829 Y60.801 E147.35191
G0 F2000 X198.829 Y61.367
G1 F1200 X172.382 Y34.92 E148.59589
G0 F2000 X171.816 Y34.92
G1 F1200 X198.829 Y61.933 E149.8665
G0 F2000 X198.829 Y62.499
G1 F1200 X171.25 Y34.92 E151.16374
G0 F2000 X170.684 Y34.92
G1 F1200 X198.829 Y63.064 E152.48757
G0 F2000 X198.829 Y63.63
G1 F1200 X170.119 Y34.92 E153.838
G0 F2000 X169.553 Y34.92
G1 F1200 X198.829 Y64.196 E155.21505
G0 F2000 X198.829 Y64.761
G1 F1200 X168.987 Y34.92 E156.6187
G0 F2000 X168.422 Y34.92
G1 F1200 X198.829 Y65.327 E158.04895
G0 F2000 X198.829 Y65.893
G1 F1200 X167.856 Y34.92 E159.50583
G0 F2000 X167.29 Y34.92
G1 F1200 X198.829 Y66.458 E160.9893
G0 F2000 X198.829 Y67.024
G1 F1200 X166.725 Y34.92 E162.49938
G0 F2000 X166.159 Y34.92
G1 F1200 X198.829 Y67.59 E164.03607
G0 F2000 X198.829 Y68.155
